/* XPM */
static char * cobble_xpm[] = {
"64 64 40 1",
" 	c #000000",
".	c #00003E",
"+	c #00015D",
"@	c #01007E",
"#	c #0100A1",
"$	c #0400BA",
"%	c #3E0000",
"&	c #520000",
"*	c #430043",
"=	c #151515",
"-	c #520153",
";	c #6F0101",
">	c #1A1A1A",
",	c #231A03",
"'	c #760079",
")	c #232323",
"!	c #AC0000",
"~	c #9F009F",
"{	c #9402BD",
"]	c #931301",
"^	c #D30000",
"/	c #313131",
"(	c #433311",
"_	c #3E3E3E",
":	c #5B3E19",
"<	c #EB1701",
"[	c #464646",
"}	c #4A4B4A",
"|	c #4E4E4E",
"1	c #535353",
"2	c #82532A",
"3	c #666666",
"4	c #716C00",
"5	c #868686",
"6	c #9E9B00",
"7	c #A4A4A4",
"8	c #B5B5B5",
"9	c #B8B8B8",
"0	c #D4CA00",
"a	c #D3D4D4",
">_>_>_>_>_>_>_>_>_>_>_>_>_>_>_>_>_>_>_>_>_>_>_>_>_>_>_>_>_>_>_>_",
"111|1|1|1|}aaaaaaaaaaaaaaaa>_579aaaaaa9a751>[[[[[[[[[[1|1|1|1|1|",
"1111111111[aaaa9aaaaaa9aaa5>_5a9575555557|_>_3555555533[[[}[[[}[",
"55555555>1}aaa9a9aa9aa99a53>_7a75757575751_>_5aaaaaa997555555555",
"aaaa9755>1[aa77775777777751>_595557777553|_>_5aa9a9aaaaaaaaaaaaa",
"77777753>1[a977777775757731>_[757755757311_>_5a97575777557575757",
"97777553>}[aa7575757775575|>_[5557577573___>_5a95757555755757757",
"97595731>_[aa57577755557531>_[[577755573___>_5a77575775575775577",
"777573[}>>}a977757575755731>>}1[5________>>__3aa5755737575557735",
"555531[[>_[7a77755555557515>>_[_______>_>>>[[[aa5555777557577575",
"3333|}__>>}5a57555557575731_>_[_>>>>>>>_>_>}1[a75757555333333333",
"11[[[>>>>__3a75755577555533_>_[[}}355777773_|}95333331111[}[}[[}",
">>>>>_>_>_1[aa555775575575|_>__377aaaaaa731>1[53331}[[_____>_>_>",
">_>_>>_>__|[7a575557557553|_>>_79aa9575753_>___________>>>>>>>>>",
"__________}}5a75775555575|1_>__7a97555555|_>_>>_>>_>>_>_________",
"1}______>_1[3a57757775757|3[>>}7a755757571_>_[1111>[}[[}[[[[[[[_",
"775757577>>1[a97557735555311>>}7a55775755|_>_37aa1[1577577757777",
"aaaaaa973_>1[59575555575353}>>}7a775575751_>_7aa7>[5aaaaaaaaaaaa",
"775757733_>1[37757757353131}>>}7a753333111_>_aa75>}7aa9979997999",
"757575533_>[1[753333113|31[>>>_75353_______>3a755>[7a77775757577",
"755757731_>[1[31111[[[_>>>>>>>>53___>>>>>>>>3a775>}7a75757573555",
"75757553|_>[1[>_>_>>>>>>>>>>>>__|_>>>>>_>>_>5a775>[5a57775757577",
"573555731_>_|1}_>>>>>>>>|}}|}}[5557755551>_39a755>}5a75757575555",
"55555753[_>_5aaaaa7753_}35779aaaaaaaaaa73>_5aa773>[5977575755555",
"55775553}_>_aa7577757_|}5aaaaa99a9a9a9a31>_5a7753>}3a57557557575",
"77557531__>_a75777577>1}7aa5757757777553[>_5a7571>}[533111333555",
"333331[___>_a77757573>}[7a77755775557571[>_5a7751>1>__[[[[}[[111",
"1}[___>>>>>_a57577553>}[7a5757755557555|}>_5a575|>1_>>>>>>>>>__[",
">>>>>>>_>}}[a77575753>_[7a5575555555575|}>_5a7751>1_______>_>>>>",
"[333575555[>a73757553_>[5a75555555755571[>_5a577|>1[_[|1|1111___",
"359aaaaaa73>a77555753_>[5a97575735555751_>_5a557|>}7aa9531[[}[[1",
"37aaa97777_>a57755773[>}5aa755355575755|_>_5a7551>}a559aaaaaa5_1",
"3a977575753>a77577573}>_|aa7775757555731_>_5a575|>}a5577557555_|",
"3a975757573>a757757531>>17a777555555753[_>}5a7751>[a7755775753_[",
"3a75757757|>a77755573|>_|5a975755757573[>__5a757|>}a7577557573_[",
"3a775577751>a957577731>>}3a975575575553_>>}5a57|1>}a7775755771_[",
"3a957757571>aa57755531>>}19a75757575531_>_[575|____77577575571__",
"3a97757575|>9a57555731>>_|59755331[}____>__1_____[>3|[11111111__",
"3a757757571>7a75775531>>_1[5531[_>>>>>>>>_[|[[|1111>>>>>>>>>>>>_",
"3a955775751>5a7775573|>>>|[_>_>>>>_>_>>_>_[11[[}[[[}[[__________",
"3a977577571>1a57557531>>_[[[_____}[}_|}[}[[1155555555555555553_|",
"3a755757531>[a75555731>>>_355555555555555557797a9a9a99a9a9a9a5_|",
"3a9775757|>>|a75755531_>>_5a9a9a9aa9a9a9a9aaaaaaaaaaaaaaaaaa53>}",
"3a95757751>__a5757573|_>>>5aaaaaaaaaaaaaaaaaaaaa999a979a99a951>|",
"399757555|>_[a77575531_>>>5aa9a9a9a79a79a997777557575557575731__",
"}a55753331>_[a55757531_>>>39a955555575775577775575777575777531>_",
"[97775111>>_[975575531_>>>[aa955575757755777575755557757575731__",
"[55511111>___777555331_>>>>9aa77555555575757755575575535575531>_",
"[_>>>1111>__}533333311_>>>_7aa55757557555775757557555555753531>_",
"111[_>>>>______________>>>>5a975575755575757575555555755555531>_",
"[}[[[}[_>>_}__>>>>>>>>>>>>_57333333375775555555557575575555731>_",
"[57777553}}1__>>_>>_>>_>_>_1[__>_>_>1335555555555555555555553|>_",
"[7aaaaaa9775331}___________1[[______>}11111111111111111111111>__",
"[7a7759aaaa97777777755555333|1[[[_[__>_>_>_>_>_>_>>>>>>>>>>>>>__",
"[7a77797579aaaaaaaaaaaaaaa9777775}1[_________>>_>_>_>_>_>_>___[}",
"[7a75755775575757577575777aaaaa95_[|}[[___>__________________[}1",
"[7a777575557755753575555757577753>_|}7aa75}}[111[[_[[[_[[_[[|111",
"[7a757557757775575557575757577731>_[[a77aaaa911}9aaaaaaaaa775}[1",
"[75333333333333333333333333333311_>_[a9797999315a77757577757a7>1",
"[53_______________________________>>}979973753[975757775757571>1",
"[_>>>>>>>>>>>>>>>>>>>>>>>>>>>>>>>>>>|_[_|33333}a7777757777755|>1",
"1}___>_>>_>>_>>_>_>>_>>_>>_>>_>>_>_>_|1__>>>>>_11111111|1111|1>1",
"11|1[[[}}[}}_________________________|1|1______|1>>>>>>>>>>>>>>1",
"________________________________________________________________"};
