/* XPM */
static char * EA_texture_xpm[] = {
"128 128 6 1",
" 	c #73F323",
".	c #EC5123",
"+	c #F32323",
"@	c #D39923",
"#	c #99DC23",
"$	c #D98C23",
"                                                                                                                                ",
"                                                                                                                                ",
"                                                                                                                                ",
"                                                                                                                                ",
"                                                                                                                                ",
"                                                                                                                                ",
"                                                                                                                                ",
"                                                                                                                                ",
"                                                                                                                                ",
"                                                                                                                                ",
"                                                                                                                                ",
"                                                                                                                                ",
"                                                                                                                                ",
"                                                                                                                                ",
"                                                                                                                                ",
"                                                                                                                                ",
"                                                                                                                                ",
"                                                                                                                                ",
"                                                                                                                                ",
"                                                                                                                                ",
"                                                                                                                                ",
"                                                                                                                                ",
"                                                                                                                                ",
"                                                                                                                                ",
"                                                                                                                                ",
"                                                                                                                                ",
"                                                                                                                                ",
"                                                                                                                                ",
"                                                                                                                                ",
"                                                                                                                                ",
"                                                                                                                                ",
"                                                                                                                                ",
"                                                                                                                                ",
"                                                                                                                                ",
"                                                                                                                                ",
"                                                                                                                                ",
"                                                                                                                                ",
"                                                                                                                                ",
"                                                  .+++++++++++++++++++++++++++@                                                 ",
"                                                  .+++++++++++++++++++++++++++@                                                 ",
"                                                  .+++++++++++++++++++++++++++@                                                 ",
"                                                  .+++++++++++++++++++++++++++@                                                 ",
"                                                  .+++++++++++++++++++++++++++@                                                 ",
"                                                  .+++++#                                                                       ",
"                                                  .+++++#                                                                       ",
"                                                  .+++++#                                                                       ",
"                                                  .+++++#                                                                       ",
"                                                  .+++++#                                                                       ",
"                                                  .+++++#                                                                       ",
"                                                  .+++++#                                                                       ",
"                                                  .+++++#                                                                       ",
"                                                  .+++++#                                                                       ",
"                                                  .+++++#                                                                       ",
"                                                  .+++++#                                                                       ",
"                                                  .+++++#                                                                       ",
"                                                  .+++++#                                                                       ",
"                                                  .++++++++++++++++++++++++++$                                                  ",
"                                                  .++++++++++++++++++++++++++$                                                  ",
"                                                  .++++++++++++++++++++++++++$                                                  ",
"                                                  .++++++++++++++++++++++++++$                                                  ",
"                                                  .++++++++++++++++++++++++++$                                                  ",
"                                                  .+++++#                                                                       ",
"                                                  .+++++#                                                                       ",
"                                                  .+++++#                                                                       ",
"                                                  .+++++#                                                                       ",
"                                                  .+++++#                                                                       ",
"                                                  .+++++#                                                                       ",
"                                                  .+++++#                                                                       ",
"                                                  .+++++#                                                                       ",
"                                                  .+++++#                                                                       ",
"                                                  .+++++#                                                                       ",
"                                                  .+++++#                                                                       ",
"                                                  .+++++#                                                                       ",
"                                                  .+++++#                                                                       ",
"                                                  .+++++#                                                                       ",
"                                                  .+++++#                                                                       ",
"                                                  .+++++#                                                                       ",
"                                                  .+++++#                                                                       ",
"                                                  .++++++++++++++++++++++++++++#                                                ",
"                                                  .++++++++++++++++++++++++++++#                                                ",
"                                                  .++++++++++++++++++++++++++++#                                                ",
"                                                  .++++++++++++++++++++++++++++#                                                ",
"                                                  .++++++++++++++++++++++++++++#                                                ",
"                                                                                                                                ",
"                                                                                                                                ",
"                                                                                                                                ",
"                               +++++++++++++++++++++++++++++++++++++++++++++++++++++++++++++++++++                              ",
"                                                                                                                                ",
"                                                                                                                                ",
"                                                                                                                                ",
"                                                                                                                                ",
"                                                                                                                                ",
"                                                                                                                                ",
"                                                                                                                                ",
"                                                                                                                                ",
"                                                                                                                                ",
"                                                                                                                                ",
"                                                                                                                                ",
"                                                                                                                                ",
"                                                                                                                                ",
"                                                                                                                                ",
"                                                                                                                                ",
"                                                                                                                                ",
"                                                                                                                                ",
"                                                                                                                                ",
"                                                                                                                                ",
"                                                                                                                                ",
"                                                                                                                                ",
"                                                                                                                                ",
"                                                                                                                                ",
"                                                                                                                                ",
"                                                                                                                                ",
"                                                                                                                                ",
"                                                                                                                                ",
"                                                                                                                                ",
"                                                                                                                                ",
"                                                                                                                                ",
"                                                                                                                                ",
"                                                                                                                                ",
"                                                                                                                                ",
"                                                                                                                                ",
"                                                                                                                                ",
"                                                                                                                                ",
"                                                                                                                                ",
"                                                                                                                                ",
"                                                                                                                                ",
"                                                                                                                                ",
"                                                                                                                                "};
