/* XPM */
static char * moss_xpm[] = {
"64 64 40 1",
" 	c #000000",
".	c #00003E",
"+	c #00015D",
"@	c #01007E",
"#	c #0100A1",
"$	c #0400BA",
"%	c #3E0000",
"&	c #520000",
"*	c #430043",
"=	c #151515",
"-	c #520153",
";	c #6F0101",
">	c #1A1A1A",
",	c #231A03",
"'	c #760079",
")	c #232323",
"!	c #AC0000",
"~	c #9F009F",
"{	c #9402BD",
"]	c #931301",
"^	c #D30000",
"/	c #313131",
"(	c #433311",
"_	c #3E3E3E",
":	c #5B3E19",
"<	c #EB1701",
"[	c #464646",
"}	c #4A4B4A",
"|	c #4E4E4E",
"1	c #535353",
"2	c #82532A",
"3	c #666666",
"4	c #716C00",
"5	c #868686",
"6	c #9E9B00",
"7	c #A4A4A4",
"8	c #B5B5B5",
"9	c #B8B8B8",
"0	c #D4CA00",
"a	c #D3D4D4",
"))))))))))))))))))))))))))))))))))))))))))))))))))))))))))))))))",
"1111111111[a00000aaaaaa666a>/57aaaaa0003551>[[[[[[[[[[1111111111",
"1111111111[aa66667700a99005>/5985050666411/>/3666655533[[[[[[[[[",
"55555555>1[aa66647006999663>/7a75505464151/>/6006458900033005555",
"a8688755>1[aa66647067775561>/5955577364131/>/6064358a000[30065aa",
"77661353>1[a966435777653561>/[706755541311/>/60435800566[3664[57",
"87415553>[[aa64457777657351>/[5666577333///>/66435000546[33[[365",
"88557531>/[aa555777a5677551>/[3575755573///)/64355505544[3553563",
"777335[[>)[a977570775755751>>[13311///////>//5355775575[35755753",
"555531[[>)[aa75750635557551)>[[/////////>>///5885657557337575575",
"33331[//>)[aa55770637575751)>/[/))>>>>>))////5856[57055353733533",
"11[[[>>>>)[7a77506637555533/>/[[[[37777aa4///38553356/113[[[[[[[",
">>>>>))))/15aa5556355755651/>/[3700aaaaaa04//153331[4//////)))))",
")))))))))/137a5755575575331/>)/700655757634>///////////))>>>>>>>",
"//////////1[5a7577375557611/>)[706575005614//))))))))))/////////",
"1[////////1[395770637575413[>)[706550055614/[[1111>[[[[[[[[[[[[[",
"777777777)>1[996566735553311>>[00557003541//[06631[1577777777777",
"a06aa0633/>1[59437353375353[>>[05555643751///6663)[59000a677000a",
"066666413/>1[37335535153131[>>[55550333111/>/6613>[7000506570663",
"667666413/>[1[773533333131[)>>)753531//////>36631>[7005766570663",
"675664411/>[1[311//////)>>>>>>)53///>>>>>>>>35651>[7755765570667",
"757641151/>[1[))))>>>>>>>>>>>>)/1/>>>>))))))57571>[5777775757643",
"575513531/>/11[/>>>>>>>>[[[[[[[5576666651)/39a793>[5570757777557",
"50655553[/>/5006658883/[360006aaaa0000666>/5a9a73>[5777577075777",
"56675553[/>/066655555/1[60637777776566664>/5a7790>[0777700577777",
"76555531//>/666333333>1[7a776707775765644>/505576>[6433066443313",
"333331[///>/663376643>[[7a077067007767634>/563574>[4//[4444[[111",
"1[[///>>>>)/663775643>[[7a07065706777753(>/5357a4>[))>>>>>>>>//[",
">>>>>>)))[[[a37765643>/[7a67045777756653(>/0a7a71>[////)))>>>>>>",
"[333575555[>a77765353(>[7a67645757776651(>/6a9971>[/////////////",
"35866577773>a7a547553(>[7a70645777776651(>46a7761>[46666666[[[[1",
"3866637777[>a77755553(>[5706435777576631(>/6aa661>[36466666667/1",
"36663576633>aa7776573(>/176455577575663[/>/6a7641>[73366664445/1",
"36633736633>a75775553(>)17a700655555663[)>45a9641>[a7764334333/[",
"33575356431>a77777753(>)15a906457757663[>>65a764(>[a7564557373/[",
"37757766431>a95706553(>>[3a964355776633/>>[5a544(>[97764557771/[",
"3a775564431>9a5766573((>[18a43557563333/>/[5754(4/[77566375371//",
"3a775744331>8a5755553((>/15975533333331/>/[1//44//[31[11111111//",
"3a856653571>7a75775531(>/1[553311[>([1[>>/[1[[///[[>>>>>>>>>>>>/",
"3a875756631>5a77753551(>)[[/)))>>)))//////[[[[[[[[[[[[//////////",
"3a667566631>1a775557514>)[[[/////[[[11333335555566665555555555/1",
"36667764431>[a756555514>)/366666666555777777788000669906906695/1",
"3665775443>)[a756375314>>/400000000679797979990666688069966663)[",
"3665755551>)[a573355314>>/406666666679779067776677006559666651)[",
"3665575751>/[a77775731(>>/)66666666645977667779770665577336331)/",
"[655757531>/[a55755531/>>/)55566666443797557977705557777556331)/",
"[55555311>)/[875575531/>>/)9a964444335795857700755355068756331)/",
"[55331111>)/[777555331/>>/)8aa63333575678758075575578667773331>/",
"[/>111111>/[[533333311/>>/)7aa35556668558778756767786677776631>/",
"111))>>)>)/[///////////>>))5a858786645858755064779777777558531>/",
"[[[[//))))/[//>>>>>>>>>>>>)57333336445735580647577558555075731>/",
"[57000653[[1//))))))))))))/1[/))))))13355684455335555558535531>/",
"[70000006675331[//////////[1[[//////)[11111111111111111111111>)/",
"[70065557796000006666663533311[[[[[//)))))>>))))))>>>>>>>>>>>)/[",
"[79767998989755666666666559777775[1[/////////)))))))))))))))//[[",
"[79979877797898755555666579a00595/[1[[[/////////////////////[[[1",
"[78a98906688a7a990675555587506553>/1[66663[[[1114666444[[[[[1111",
"[799755664979a777a99797a757a75531>/[[66663aa811600065077a0875[[1",
"[75333364353335333335575533333311/>/[36643888315555557750637a7>1",
"[53[//////////////////////////////>)[864373753[557570077663571>1",
"[/>>>>>>>>>>>>>>>>>>>>>>>>>>>>>>>>>)[/(4133333[337700657633551>1",
"1[///)))))))))))))))))))))))))))))))/[((/>>>>>/[11441114411111>1",
"1111[[[[[[[[/////////////////////////[[[[//////[[>>>>>>>>>>>>>>1",
"////////////////////////////////////////////////////////////////"};
