/* XPM */
static char * NO_texture_xpm[] = {
"128 128 103 2",
"  	c #2339F3",
". 	c #EBD651",
"+ 	c #F3DD23",
"@ 	c #BFB0A8",
"# 	c #C9B89C",
"$ 	c #9087D0",
"% 	c #F1DB34",
"& 	c #6565E5",
"* 	c #F3DD27",
"= 	c #7471DF",
"- 	c #D2C08E",
"; 	c #837DD8",
"> 	c #D9C680",
", 	c #E8D35D",
"' 	c #9289CF",
") 	c #A397C3",
"! 	c #E0CC72",
"~ 	c #2B3DF2",
"{ 	c #3945F0",
"] 	c #E1CD70",
"^ 	c #9F94C7",
"/ 	c #3140F1",
"( 	c #938ACE",
"_ 	c #E6D163",
": 	c #3643F1",
"< 	c #DAC77E",
"[ 	c #AA9DBE",
"} 	c #857ED7",
"| 	c #EAD554",
"1 	c #464EEE",
"2 	c #D3C18D",
"3 	c #B4A6B4",
"4 	c #7672DE",
"5 	c #EED846",
"6 	c #5458EA",
"7 	c #CAB99A",
"8 	c #BEAFA9",
"9 	c #6867E4",
"0 	c #F1DB36",
"a 	c #6363E6",
"b 	c #C1B1A6",
"c 	c #C7B79E",
"d 	c #595BE9",
"e 	c #EED942",
"f 	c #F2DC2B",
"g 	c #726FE0",
"h 	c #B7A9B1",
"i 	c #D0BE91",
"j 	c #4A50ED",
"k 	c #EBD64F",
"l 	c #817BD9",
"m 	c #ADA0BB",
"n 	c #D8C682",
"o 	c #3B47F0",
"p 	c #E7D35F",
"q 	c #8F87D1",
"r 	c #A297C4",
"s 	c #DFCB74",
"t 	c #2E3EF2",
"u 	c #E2CE6E",
"v 	c #9C92C8",
"w 	c #968CCD",
"x 	c #E5D165",
"y 	c #3442F1",
"z 	c #DCC97B",
"A 	c #A89BBF",
"B 	c #8880D5",
"C 	c #EAD556",
"D 	c #444CEE",
"E 	c #D4C28A",
"F 	c #B2A5B6",
"G 	c #7874DD",
"H 	c #EDD848",
"I 	c #5357EB",
"J 	c #CBBA98",
"K 	c #BDAEAB",
"L 	c #6A69E3",
"M 	c #F1DC31",
"N 	c #F0DA39",
"O 	c #6061E7",
"P 	c #C3B3A3",
"Q 	c #C6B5A0",
"R 	c #5C5DE8",
"S 	c #EFDA3E",
"T 	c #F2DC2E",
"U 	c #706DE1",
"V 	c #B9ABAF",
"W 	c #CEBD93",
"X 	c #4C52EC",
"Y 	c #ECD74E",
"Z 	c #7E79DA",
"` 	c #AFA2B9",
" .	c #D7C485",
"..	c #3E48EF",
"+.	c #E8D35C",
"@.	c #A499C2",
"#.	c #E3CF6B",
"$.	c #988ECB",
"%.	c #273BF3",
"&.	c #DDC979",
"*.	c #8A83D4",
"=.	c #D5C388",
"-.	c #7B76DC",
"                                                                                                                                                                                                                                                                ",
"                                                                                                                                                                                                                                                                ",
"                                                                                                                                                                                                                                                                ",
"                                                                                                                                                                                                                                                                ",
"                                                                                                                                                                                                                                                                ",
"                                                                                                                                                                                                                                                                ",
"                                                                                                                                                                                                                                                                ",
"                                                                                                                                                                                                                                                                ",
"                                                                                                                                                                                                                                                                ",
"                                                                                                                                                                                                                                                                ",
"                                                                                                                                                                                                                                                                ",
"                                                                                                                                                                                                                                                                ",
"                                                                                                                                                                                                                                                                ",
"                                                                                                                                                                                                                                                                ",
"                                                                                                                                                                                                                                                                ",
"                                                                                                                                                                                                                                                                ",
"                                                                                                                                                                                                                                                                ",
"                                                                                                                                                                                                                                                                ",
"                                                                                                                                                                                                                                                                ",
"                                                                                                                                                                                                                                                                ",
"                                                                                                                                                                                                                                                                ",
"                                                                                                                                                                                                                                                                ",
"                                                                                                                                                                                                                                                                ",
"                                                                                                                                                                                                                                                                ",
"                                                                                                                                                                                                                                                                ",
"                                                                                                                                                                                                                                                                ",
"                                                                                                                                                                                                                                                                ",
"                                                                                                                                                                                                                                                                ",
"                                                                                                                                                                                                                                                                ",
"                                                                                                                                                                                                                                                                ",
"                                                                                                                                                                                                                                                                ",
"                                                                                                                                                                                                                                                                ",
"                                                                                                                                                                                                                                                                ",
"                                                                                                                                                                                                                                                                ",
"                                                                                                                                                                                                                                                                ",
"                                                                                                                                                                                                                                                                ",
"                                                                                                                                                                                                                                                                ",
"                                                                                                                                                                                                                                                                ",
"                                                                                              . + + + + + + + @                                       # + + + + + $                                                                                             ",
"                                                                                              . + + + + + + + % &                                     # + + + + + $                                                                                             ",
"                                                                                              . + + + + + + + + #                                     # + + + + + $                                                                                             ",
"                                                                                              . + + + + + + + + * =                                   # + + + + + $                                                                                             ",
"                                                                                              . + + + + + + + + + -                                   # + + + + + $                                                                                             ",
"                                                                                              . + + + + + + + + + + ;                                 # + + + + + $                                                                                             ",
"                                                                                              . + + + + + + + + + + >                                 # + + + + + $                                                                                             ",
"                                                                                              . + + + + + , + + + + + '                               # + + + + + $                                                                                             ",
"                                                                                              . + + + + + ) + + + + + ! ~                             # + + + + + $                                                                                             ",
"                                                                                              . + + + + + { ] + + + + + ^                             # + + + + + $                                                                                             ",
"                                                                                              . + + + + + / ( + + + + + _ :                           # + + + + + $                                                                                             ",
"                                                                                              . + + + + + /   < + + + + + [                           # + + + + + $                                                                                             ",
"                                                                                              . + + + + + /   } + + + + + | 1                         # + + + + + $                                                                                             ",
"                                                                                              . + + + + + /     2 + + + + + 3                         # + + + + + $                                                                                             ",
"                                                                                              . + + + + + /     4 * + + + + 5 6                       # + + + + + $                                                                                             ",
"                                                                                              . + + + + + /       7 + + + + + 8                       # + + + + + $                                                                                             ",
"                                                                                              . + + + + + /       9 % + + + + 0 a                     # + + + + + $                                                                                             ",
"                                                                                              . + + + + + /         b + + + + + c                     # + + + + + $                                                                                             ",
"                                                                                              . + + + + + /         d e + + + + f g                   # + + + + + $                                                                                             ",
"                                                                                              . + + + + + /           h + + + + + i                   # + + + + + $                                                                                             ",
"                                                                                              . + + + + + /           j k + + + + + l                 # + + + + + $                                                                                             ",
"                                                                                              . + + + + + /             m + + + + + n                 # + + + + + $                                                                                             ",
"                                                                                              . + + + + + /             o p + + + + + q               # + + + + + $                                                                                             ",
"                                                                                              . + + + + + /               r + + + + + s ~             # + + + + + $                                                                                             ",
"                                                                                              . + + + + + /               t u + + + + + v             # + + + + + $                                                                                             ",
"                                                                                              . + + + + + /                 w + + + + + x y           # + + + + + $                                                                                             ",
"                                                                                              . + + + + + /                   z + + + + + A           # + + + + + $                                                                                             ",
"                                                                                              . + + + + + /                   B + + + + + C D         # + + + + + $                                                                                             ",
"                                                                                              . + + + + + /                     E + + + + + F         # + + + + + $                                                                                             ",
"                                                                                              . + + + + + /                     G * + + + + H I       # + + + + + $                                                                                             ",
"                                                                                              . + + + + + /                       J + + + + + K       # + + + + + $                                                                                             ",
"                                                                                              . + + + + + /                       L M + + + + N O     # + + + + + $                                                                                             ",
"                                                                                              . + + + + + /                         P + + + + + Q     # + + + + + $                                                                                             ",
"                                                                                              . + + + + + /                         R S + + + + T U   # + + + + + $                                                                                             ",
"                                                                                              . + + + + + /                           V + + + + + W   # + + + + + $                                                                                             ",
"                                                                                              . + + + + + /                           X Y + + + + + Z # + + + + + $                                                                                             ",
"                                                                                              . + + + + + /                             ` + + + + +  .# + + + + + $                                                                                             ",
"                                                                                              . + + + + + /                             ..+.+ + + + + p + + + + + $                                                                                             ",
"                                                                                              . + + + + + /                               @.+ + + + + + + + + + + $                                                                                             ",
"                                                                                              . + + + + + /                               / #.+ + + + + + + + + + $                                                                                             ",
"                                                                                              . + + + + + /                                 $.+ + + + + + + + + + $                                                                                             ",
"                                                                                              . + + + + + /                                 %.&.+ + + + + + + + + $                                                                                             ",
"                                                                                              . + + + + + /                                   *.+ + + + + + + + + $                                                                                             ",
"                                                                                              . + + + + + /                                     =.+ + + + + + + + $                                                                                             ",
"                                                                                              . + + + + + /                                     -.+ + + + + + + + $                                                                                             ",
"                                                                                                                                                                                                                                                                ",
"                                                                                                                                                                                                                                                                ",
"                                                                                                                                                                                                                                                                ",
"                                                              + + + + + + + + + + + + + + + + + + + + + + + + + + + + + + + + + + + + + + + + + + + + + + + + + + + + + + + + + + + + + + + + + + +                                                             ",
"                                                                                                                                                                                                                                                                ",
"                                                                                                                                                                                                                                                                ",
"                                                                                                                                                                                                                                                                ",
"                                                                                                                                                                                                                                                                ",
"                                                                                                                                                                                                                                                                ",
"                                                                                                                                                                                                                                                                ",
"                                                                                                                                                                                                                                                                ",
"                                                                                                                                                                                                                                                                ",
"                                                                                                                                                                                                                                                                ",
"                                                                                                                                                                                                                                                                ",
"                                                                                                                                                                                                                                                                ",
"                                                                                                                                                                                                                                                                ",
"                                                                                                                                                                                                                                                                ",
"                                                                                                                                                                                                                                                                ",
"                                                                                                                                                                                                                                                                ",
"                                                                                                                                                                                                                                                                ",
"                                                                                                                                                                                                                                                                ",
"                                                                                                                                                                                                                                                                ",
"                                                                                                                                                                                                                                                                ",
"                                                                                                                                                                                                                                                                ",
"                                                                                                                                                                                                                                                                ",
"                                                                                                                                                                                                                                                                ",
"                                                                                                                                                                                                                                                                ",
"                                                                                                                                                                                                                                                                ",
"                                                                                                                                                                                                                                                                ",
"                                                                                                                                                                                                                                                                ",
"                                                                                                                                                                                                                                                                ",
"                                                                                                                                                                                                                                                                ",
"                                                                                                                                                                                                                                                                ",
"                                                                                                                                                                                                                                                                ",
"                                                                                                                                                                                                                                                                ",
"                                                                                                                                                                                                                                                                ",
"                                                                                                                                                                                                                                                                ",
"                                                                                                                                                                                                                                                                ",
"                                                                                                                                                                                                                                                                ",
"                                                                                                                                                                                                                                                                ",
"                                                                                                                                                                                                                                                                ",
"                                                                                                                                                                                                                                                                ",
"                                                                                                                                                                                                                                                                ",
"                                                                                                                                                                                                                                                                ",
"                                                                                                                                                                                                                                                                "};
