/* XPM */
static char * python_color_xpm[] = {
"256 256 60 1",
" 	c #000000",
".	c #060A05",
"+	c #0E110B",
"@	c #10121A",
"#	c #0C1D0C",
"$	c #151B0A",
"%	c #1A1B18",
"&	c #191B23",
"*	c #28210E",
"=	c #1C250D",
"-	c #28282A",
";	c #252935",
">	c #2F2D26",
",	c #283024",
"'	c #9402BD",
")	c #353535",
"!	c #473622",
"~	c #373C24",
"{	c #46433F",
"]	c #3F463A",
"^	c #3F464F",
"/	c #52534A",
"(	c #53553E",
"_	c #60523E",
":	c #3B5E7B",
"<	c #626259",
"[	c #53685C",
"}	c #376C98",
"|	c #3672A3",
"1	c #786A2E",
"2	c #6F6A56",
"3	c #3477AF",
"4	c #3178B7",
"5	c #747067",
"6	c #7E8081",
"7	c #6187A9",
"8	c #868075",
"9	c #8D8873",
"0	c #9E8843",
"a	c #84939A",
"b	c #979188",
"c	c #A5A19E",
"d	c #A9A193",
"e	c #8BAABC",
"f	c #B6B2AF",
"g	c #BCB1A5",
"h	c #DDC055",
"i	c #C8C1B9",
"j	c #D3C0BF",
"k	c #D3C3A8",
"l	c #B1D5CB",
"m	c #FFD03E",
"n	c #E4D0D2",
"o	c #DAD4CD",
"p	c #FED846",
"q	c #F1E19F",
"r	c #CDE7E7",
"s	c #F6DFE3",
"t	c #EDE5E2",
"u	c #FFFFFF",
"                                                                                              -ut    ......++++++%%--)--------){{{<<<<6bbbccbbcdbcaa777|333333333333333333333333333333333333333333|||||||}::;;;---&&&&&&&&&&;&&&@                               ",
"                                                                                              -ut    ...+++%%%%%---------%%---){/<<556ccccccccbbaa7|||33333333333333333333333333333333333333333333|||||33|||}:;;--&&&&&;;;;;--;&&+                              ",
"                                                                                              -ut   ..++%%%%%%%---)------------)/56666ccccffffce7|343333|33333333333333333333333333333333333333333||||||||||43}:;;----;;;;;-------%%+                           ",
"                                                                                              -ut   .+%%%--------------------&--)/566bcccffffe7333333333333333333333333333333333333333333333333333||||||||||33||}:;--;;;-----------&&@                          ",
"                                                                                              -ut ..+%%%------------------))--;--){<6bcccccce74333333333344444333333333333333333333333333333333333|||||||||||||||}:;-----))))))----;;&%+.                       ",
"                                                                                              -ut .+%%%%%%%--------------)^))---%%-)<6ccccce744333333333344444333333333333333333333333333333333333|||||||||||||||33};>>)))^^^^))))------%+.                     ",
"                                                                                              -ut.%%%%%%%%%%%----------))^^^)-------){56cfe73443333333333|||||333333333333333333333333333333333333||||||||||||||||33:^)))^^^^^))))))))---%%%+.                  ",
"                                                                                              -ut+%%%%%%%%%%%%----------)))))---------^/6a7|34433333437eeeeeaa7|33|33333333333333333333333333|||||||||||||||||||||||}:^;^^^^^)))))))))----&&@@                  ",
"                                                                                             .-ut%%%%%%%%%%%-----;;;-----)))--------;&&-^:||34433333|elllllldda7|3433333333333333333333333333|||||||||||||||||||||||}}:;^^^^^^)))))^)))--;&&@@@@.               ",
"                                                                                             .-ut%%%%%%%%%%%%%---&&;------------------&&-^|333333333erllllllld9ba|443333333333333333333333333||||||||||||||||||||||}}}:^^^^^^^^^^^^^^^^))-&&&&@@+..             ",
"                                                                                             .-ut%%%%%+%%%%%%%--&&&&;----------;;;;;;--&&^3333333333rlllllllliddb7443333333333333333333333333||||||||||||||||||||}}}|3}^^^^^^^^^^^^^^^^^^)-;&&&@++...           ",
"                                                                                             .-ut%%%%%++%%%%%%%--&&;;;;;&&;--;;;&&&&&&---:33333333|errllllllligkka|333333333333333333333||||||||||||||||||||||||||}|||}:^^^^^^^^^{{{{^^^^)--&&&&&@@@ .          ",
"                                                                                              -ut+%%%%%%%+++%%%%&&&;;;;;&&&;;&&&&&&&&&&&-^33333|34|elllllllllikkka||33333333333333333333||||||||||||||||||||||||||||||}:^^^^)^^^^{{{{^^^)---&&&&&@@@@....       ",
"                                                                                              -ut.++%%%%%++++%%%&&&;----;;&&&&&&&&&&&&&&&^33333|34|ellllllllikkkk7||33333333333333333333||||||||||||||||||||||||||||||}:^^^^)^^^^{{{{^^)----&&&&&&@@@.. ..      ",
"                                                                                              -ut ..+++%%%%++++%@&&&;------;;&&&&&&&&&&&&^33333|34|7llllllliiikki7||33333333333333333333||||||||||||||||||||||||||||||}:^^^^)^^^^{){{{^)--&&&&&&&&&&&%+......   ",
"                                                                                              -ut   ..++%%%%%+++@@&&---)))-;--;;&&&&&&&&-^333333333|ellllllikkkke3||333333333333333|||||||||||||||||||||||||||||||||||}:^^^^)){^{{{{^^^)---&&&&&&&&&@%%++++++.  ",
"                                                                                              -ut    ...+%%%%++++++%%%--)))--)--;&&&&&&--:3333333333|ellllliikga|43|333333333333333|||||||||||||||||||||||||||||||||||}:^^^^]{{{{{{{^^^))--&&&&&&@@@@@+%%+++++++",
"                                                                                              -ut      ..++%%%++...++%%%-)))))))-----;;--:3333333333437ellllfa7344||333333333333333|||||||||||||||||||||||||||||||||||}:^^^^){{{{{{{^^^^)-----&&&@@@@@+%%%++++..",
"                                                                                              -ut       ..+%%%%++...++%%%%---)^^))---;--):3333333333|4437777||333333333333333333333|||||||||||||||||||||||||||||||||||}:^^^^]{/{{{{{^^^^^)----&&@@@@@@++%%%%%%++",
"                                                                                              -ut        ..+%%%%++...++%%%----)))))))--)):3333333333|3443||3443||3333333333333||||||||||||||||||||||||||||||||||||||||}:^{)){{{{{{{{^^[[^)----&&@@@@&&&@&---%%%%",
"                                                                                              -ut         ...+++++....+%%---%%-)){))))-,,^333333333333333333333333333333333333||||||||||||||||||||||||||||||||||||||||}:^]{{{{{{{{{/[[[[^)-&&;&&&@@@@&@@@@---%%%",
"                                                                                              -ut            ...++..  .+%---%%---)))))),,^333333333333333333333333333333333333||||||||||||||||||||||||||||||||||||||||}:^{{{{/{{{{][[aa[[^-&&;--&&@@@@@&@@%%%%%%",
"                                                                                              -ut              .....   .+%%%--------))),,^333333333333333333333333333333333333||||||||||||||||||||||||||||||||||||||||}:^]{{{/{{{][[aaaa6^);&&;;;&&@@@@@@@@%%%%%",
"                                                                                              -ut                  .    .+%%------%-----,^3333333333|||||||||||||||||||||||||34|||3|||||||||||||||||||||||||||||||||||}:^{{){{{{{][alllla[]-&@&&&-&&@@@@@@@@@@@@",
"                                                                                              -ut                 ..     +%%------%%%%%--^3333333333444444333333333333333||||33|}|3|||||||||||||||||||||||||||||||||||}:^{{{{{{//<[allla[[]-&@@&&----&@@@@@@@@@@",
"                                                                                              -ut                        .%%--------%%+%%^}}}}}}}}}}}}}}}:::77777eee7eeeeeeeeeee7|3|||||||||||||||||||||||||||||||||||}:^{{{{//5666[[[[[[[[^-&&&@&-)-&@@@@@@@@@@",
"                                                                                              -ut                        .%%----------%%%%---------->>>>>!!__8dgkkkootttuuuuuuuur|3|||||||||||||||||||||||||||||||||||}:^{{{/<5566[[[[[[[[[],-&&@@&-)-@@@@@@@@@@",
"                                                                                              -ut                        .+%------------%%>>>>>>>>>>-----!!!!_2dkkkoottuuuuuuuuur}3|||||||||||||||||||||||||||||||}}}}}:^///<55<<//[[[[[[[[[],,%&&%-^^-&&@@@@@@.",
"                                                                                              -ut                         .%%--------))------%%%%%%------*!!!!_2dkkkotuuuuuuuuuur}|||||||||||||||||||||||||||||||}}}}}}:^/<<<_^{_{{{[[[[[[[[]^;;;;--;^-&&&++++++",
"                                                                                              -ut                    @@@@@@@&;;;;;;;;;;;;;;;;;&&&&&&;;;;;-----!_59diouuuuuuuuuuur:|||||||||||||||||||||||||||||||}}}}}}:^<<<0hh0hhhhhhhhhhh001(~,---;---&&+++++%",
"                                                                                              -ut                 @;::}}}}}}}}}}}}}}}}}}}}}}}}}}}}}}}}}}}}::}:}}:}777777777777777}|||||||||||||||||||||||||||||||}}}}}}:^//(hpppppppppppppppppph01*))---&@++++++",
"                                                                                              -ut             @;::}|333333333333333333333333333333333333333333343333|3343333333|||3||||||||||||||||||||||||||||||}}}}}}:^//_hppppppppppppppppmmmphh1>--%%@@+++..",
"                                                                                              -ut            ;:|3333333333333333333333333333333333333333333333||||||||||||||||||||||||||||||||||||||||||||||}}}}}}}}}}}:^//(hpppppppppppppppppppmmph0!++@......%",
"                                                                                              -ut          ;:|343333333333333333333333333333333333333333333333||||||||||||||||||||||||||||||||||||||||||||||}}}}}}}}}}}:^//(hpppppppppppppppppppmmppph1@@++..%%-",
"                                                                                              -ut        @:||3333333333333333333333333333333333333333333333333||||||||||||||||||||||||||||||||||||||||||||||}}}}}}}}}}}:^/<(hpppppppppppppppppppmmmmmph0*>%%%-))",
"                                                                                              -ut       @:3333333333333333333333333333333333333333333333333333||||||||||||||||||||||||||||||||||||||||||||||}}}}}}}}}}}:^/<(hppppppppppppppppppppppmmmpp0>)>>>)-",
"                                                                                              -ut      &}333333333333333333333333333333333333333333333333||||||||||||||||||||||||||||||||||||||||||||||}}}}}}}}}}}}}}}}:<<<<hppppppppppppppppppppppppmmph0>-->--",
"                                                                                              -ut     @:3333333333333333333333333333333333333333333333333||||||||||||||||||||||||||||||||||||||||||||||}}}}}}}}}}}}}}}}:6<<_hppppppppppppppppppppppppmmppp0-;->>",
"                                                                                              -ut    @}343|3333333333333333333333333333333333333333333333||||||||||||||||||||||||||||||||||||||||||||||}}}}}}}}}}}}}}}}:<<</hppppppppppppppppppppppppmmmmmh1>--%",
"                                                                                              -ut    :3443|3333333333333333333333333333333333333333333333||||||||||||||||||||||||||||||||||||||||||||||}}}}}}}}}}}}}}}}:^/{{hppppppppppppppppppppppppmmmmmmh=&-%",
"                                                                                              -ut   ;|3333333333333333333333333333333333333333333333||||||||||||||||||||||||||||||||||||||||||||||}}}}}}}}}}}}}}}}}}}}}:^{{{hpmppppppppppppppppppppppmmmmmmp1&&$",
"                                                                                              -ut  @:33333333333333333333333333333333333333333333333||||||||||||||||||||||||||||||||||||||||||||||}}}}}}}}}}}}}}}}}}}}}:^{{{hpmppppppppppppppppppppppmmmmmmph*%$",
"                                                                                              -ut  :|33333333333333333333333333333333333333333333333||||||||||||||||||||||||||||||||||||||||||||||}}}}}}}}}}}}}}}}}}}}}:^{{{hpmppppppppppppppppppppppmmmmmmmp1%%",
"                                                                                              -ut @:333333333333333333333333333333333333333333333333||||||||||||||||||||||||||||||||||||||||||||||}}}}}}}}}}}}}}}}}}}}}:^{)>hpmppppppppppppppppppppmmmmmmmmmmh*&",
"                                                                                              -ut ;|3333333333333333333333333333333333333333333||||||||||||||||||||||||||||||||||||||||||||||}}}}}}}}}}}}}}}}}}}}}}}}}}:)-&>hpmpppppppppppppppppmmmmmmmmmmmmmp1;",
"                                                                                              -ut@:|3333333333333333333333333333333333333333333||||||||||||||||||||||||||||||||||||||||||||||}}}}}}}}}}}}}}}}}}}}}}}}}}^&@@>hpmpppppppppppppppppmmmmmmmmmmmmmp0%",
"                                                                                              -ut;}33333333333333333333333333333333333333333333||||||||||||||||||||||||||||||||||||||||||||||}}}}}}}}}}}}}}}}}}}}}}}}}:;@@&>hpppppppppppppppppppmmmmmmmmmmpmmph!",
"                                                                                              -ut:|33333333333333333333333333333333333333333333||||||||||||||||||||||||||||||||||||||||||||||}}}}}}}}}}}}}}}}}}}}}}}}}:&@&&!hpmpppppppppppppppmmmmmmmmmmmmmmmmp1",
"                                                                                              -ut}|334333333333333333333333333333333333333||||||||||||||||||||||||||||||||||||||||||||||}}}}}}}}}}}}}}}}}}}}}}}}}}}3|};@*&&1pppppppppppppppmmmmmmmmmmmmmmmmmmmmh",
"                                                                                              -ut}|334333333333333333333333333333333333333||||||||||||||||||||||||||||||||||||||||||||||}}}}}}}}}}}}}}}}}}}}}}}}}}}|}:;&%&%0pppppppppppppppmmmmmmmmmmmmmmmmmmmmm",
"                                                                                              -ut|3334333333333333333333333333333333333333||||||||||||||||||||||||||||||||||||||||||||||}}}}}}}}}}}}}}}}}}}}}}}}}}}}};;-%&*hpppppppppppppppmmmmmmmmmmmmmmmmmmmmm",
"                                                                                              -ut|3333333333333333333333333333333333333333||||||||||||||||||||||||||||||||||||||||||||||}}}}}}}}}}}}}}}}}}}}}}}}}}}}:)),;;1hppppppppppppppmmmmmmmmmmmmmmmmmmmmmm",
"                                                                                              -ut333333333333333333333333333333333333||||||||||||||||||||||||||||||||||||||||||||||}}}}}}}}}}}}}}}}}}}}}}}}}}}}}}}::^]{);>hpppppppppppmmmmmmmmmmmmmmmmmmmmmmmmmm",
"                                                                                              -ut333333333333333333333333333333333333||||||||||||||||||||||||||||||||||||||||||||||}}}}}}}}}}}}}}}}}}}}}}}}}}}}}}::^^{{)>1hmppppppppppmmmmmmmmmmmmmmmmmmmmmmmmmm",
"                                                                                              -ut333333333333333333333333333333333333||||||||||||||||||||||||||||||||||||||||||||||}}}}}}}}}}}}}}}}}}}}}}}}}}}}::^^^^{^{1hppppppppppppmmmmmmmmmmmmmmmmmmmmmmmmmm",
"                                                                                              -ut333333333333333333333333333333333333||||||||||||||||||||||||||||||||||||}}}}}}}}}}}}}}}}}}}}}}}}}}}}}}}}}}}}}::^^^)));>0ppppppppppppmmmmmmmmmmmmmmmmmmmmmmmmmmm",
"                                                                                              -ut3333333333333333333333333||||||||||||||||||||||||||33333||||||||||||||||}}}}}}}}}}|||||||||||||||}}}}}}}}}}::^^{{);;-*0hpmmpppppmmmmmmmmmmmmmmmmmmmmmmmmmmmmmmm",
"                                                                                              -ut3333333333333333333333333|||||||||||||||||||||||||||||||||||||||||||||||3343444443||||}}|}}}}}}}}}}}}}}}::^^^^^{-;&%*0hppmmpppppmmmmmmmmmmmmmmmmmmmmmmmmmmmmmmm",
"                                                                                              -ut|333333333333333333333333||||||||||||||||||||||||||}::::::::::::::::::::::::777777:::::::::::::::::::::^^){{{{{)-&%!hpppmmmppppmmmmmmmmmmmmmmmmmmmmmmmmmmmmmmmm",
"                                                                                              -ut|333333333333333333333333||||||||||||||||||3||||}}:;;;;;;;;&@&&&&&&---&%)/<6666666<<^^--)^));;----%%--{{//{{{{^;-!0hppmmpppppppmmmmmmmmmmmmmmmmmmmmmmmmmmmmmmmm",
"                                                                                              -ut|3333333333333333333|||||||||||||||||||||}|4|}}:;&%%%%>>>>>%%%%$$,>>>>>>/<666555</{{)>){/{>>--)----&&&;^^<{;^))_0hpppppppppmmmmmmmmmmmmmmmmmmmmmmmmmmmmmmmmmmmm",
"                                                                                              -ut|3333333333333333333|||||||||||||||||||||3|}:^---%%%%&;;))>,$%%%%-))--){<6665<^^--))--{</)&@&-))-&&&@@&;){/_10hppppppppppppmmmmmmmmmmmmmmmmmmmmmmmmmmmmmmmmmmmm",
"                                                                                              -ut|3333333333333333333||||||||||||||||||||||:^-%>>----%%>>{__11111000000000000000110001100011110000111110000hpppmmmpppppppppmmmmmmmmmmmmmmmmmmmmmmmmmmmmmmmmmmmmm",
"                                                                                              -ut|3333333333333333333||||||||||||||||||||}:;>--;;;--->100hhppppppppppppppppppppppppppppppppppppppppppppppppppppppppppppppppmmmmmmmmmmmmmmmmmmmmmmmmmmmmmmmmmmmmm",
"                                                                                              -ut|33333333333333||||||||||||||||||||||33}:------;&>_0hhppppppppppppppppppppppppppppppppppppppppppppppppppppppppppppppppmmmmmmmmmmmmmmmmmmmmmmmmmmmmmmmmmmmmmmmmm",
"                                                                                              -ut|33333333333333|||||||||||||||||||||||}:;-----;>1hhpppppppppppppppppppppppppppppppppppppppppppppppppppppppppppppppppppmmmmmmmmmmmmmmmmmmmmmmmmmmmmmmmmmmmmmmmmm",
"                                                                                              -ut|33333333333333|||||||||||||||||||||||:;>-----1hhppppppppppppppppppppppppppppppppppppppppppppppppppppppppppppppppppppmmmmmmmmmmmmmmmmmmmmmmmmmmmmmmmmmmmmmmmmmm",
"                                                                                              -ut|33333333333333||||||||||||||||||||||}:-*--->9hppppppppppppppppppppppppppppppppppppppppppppppppppppppppppppppppppppppmmmmmmmmmmmmmmmmmmmmmmmmmmmmmmmmmmmmmmmmmm",
"                                                                                              -ut|333333333|||||||||||||||||||||||||3|:->>-;>0hppppppppppppppppppppppppppppppppppppppppppppppppppppppppppppppppppmmmmmmmmmmmmmmmmmmmmmmmmmmmmmmmmmmmmmmmmmmmmmmm",
"                                                                                              -ut|333333333||||||||||||||||||||||||||};->-;>0hpppppppppppppppppppppppppppppppppppppppppppppppppppppppppppppppppppmmmmmmmmmmmmmmmmmmmmmmmmmmmmmmmmmmmmmmmmmmmmmmm",
"                                                                                              -ur|333333333|||||||||||||||||||||||||}:;>>--1hppppppppppppppppppppppppppppppppppppppppppppppppppppppppppppppppppppmmmmmmmmmmmmmmmmmmmmmmmmmmmmmmmmmmmmmmmmmmmmmmm",
"                                                                                              -ut|333333333|||||||||||||||||||||||||}^->>-~hpppppppppppppppppppppppppppppppppppppppppppppppppppppppppppppppppppppmmmmmmmmmmmmmmmmmmmmmmmmmmmmmmmmmmmmmmmmmmmmmmm",
"                                                                                              -ut}|33|||||||||||||||||||||||||||||||};->--0hppppppppppppppppppppppppppppppppppppppppppppppppppppppppppppppppmmmmmmmmmmmmmmmmmmmmmmmmmmmmmmmmmmmmmmmmmmmmmmmmmmmh",
"                                                                                              -ut:|33|||||||||||||||||||||||||||||||};->>!hpppppppppppppppppppppppppppppppppppppppppppppppppppppppppppppppppmmmmmmmmmmmmmmmmmmmmmmmmmmmmmmmmmmmmmmmmmmmmmmmmmmh1",
"                                                                                              -ut;}|33||||||||||||||||||||||||||||||:)-->1hpppppppppppppppppppppppppppppppppppppppppppppppppppppppppppppppppmmmmmmmmmmmmmmmmmmmmmmmmmmmmmmmmmmmmmmmmmmmmmmmmmmh*",
"                                                                                              -ut@:|33||||||||||||||||||||||||||||||:,))>0ppppppppppppppppppppppppppppppppppppppppppppppppppppppppppppppppppmmmmmmmmmmmmmmmmmmmmmmmmmmmmmmmmmmmmmmmmmmmmmmmmmm0 ",
"                                                                                              -ut :33|||||||||||||||||||||||||||||}}:),)!hpppppppppppppppppppppppppppppppppppppppppppppppppppppppppppppmmmmmmmmmmmmmmmmmmmmmmmmmmmmmmmmmmmmmmmmmmmmmmmmmmmmmmm1@",
"                                                                                              -ut ;|3|||||||||||||||||||||||||||||}}:),)!hpppppppppppppppppppppppppppppppppppppppppppppppppppppppppppppmmmmmmmmmmmmmmmmmmmmmmmmmmmmmmmmmmmmmmmmmmmmmmmmmmmmmmh @",
"                                                                                              -ut @:||||||||||||||||||||||||||||||}}:),)!hpppppppppppppppppppppppppppppppppppppppppppppppppppppppppppppmmmmmmmmmmmmmmmmmmmmmmmmmmmmmmmmmmmmmmmmmmmmmmmmmmmmmh1  ",
"                                                                                              -ut  ;}3||||||||||||||||||||||||||||}}:),)!hpppppppppppppppppppppppppppppppppppppppppppppppppppppppppppppmmmmmmmmmmmmmmmmmmmmmmmmmmmmmmmmmmmmmmmmmmmmmmmmmmmmmh@  ",
"                                                                                              -ut  @:|||||||||||||||||||||||||||||}}:));!hppppppppppppppppppppppppppppppppppppppppppppppppppppppppmmmmmmmmmmmmmmmmmmmmmmmmmmmmmmmmmmmmmmmmmmmmmmmmmmmmmmmmmh(   ",
"                                                                                              -ut   ;}||||||||||||||||||||||||||||}}:));!hppppppppppppppppppppppppppppppppppppppppppppppppppppppppmmmmmmmmmmmmmmmmmmmmmmmmmmmmmmmmmmmmmmmmmmmmmmmmmmmmmmmmm0    ",
"                                                                                              -ut   @:||||||||||||||||||||||||||||}}:{);!hppppppppppppppppppppppppppppppppppppppppppppppppppppppppmmmmmmmmmmmmmmmmmmmmmmmmmmmmmmmmmmmmmmmmmmmmmmmmmmmmmmmm0+    ",
"                                                                                              -ut    @}|||||||||||||||||||||||||||}}:{);!hppppppppppppppppppppppppppppppppppppppppppppppppppppppppmmmmmmmmmmmmmmmmmmmmmmmmmmmmmmmmmmmmmmmmmmmmmmmmmmmmmmmh!     ",
"                                                                                              -ut     ;}||}|||||||||||||||||||||||}}:]];!hpppppppppppppppppppppppppppppppppppppppppppppppppppmmmmmmmmmmmmmmmmmmmmmmmmmmmmmmmmmmmmmmmmmmmmmmmmmmmmmmmmmmmh!      ",
"                                                                                              -ut      ;}|3|||||||||||||||||||||||}}:]];!hpppppppppppppppppppppppppppppppppppppppppppppppppppmmmmmmmmmmmmmmmmmmmmmmmmmmmmmmmmmmmmmmmmmmmmmmmmmmmmmmmmmmh!.      ",
"                                                                                              -ut       ;}||||||||||||||||||||||||}}:]];!hpppppppppppppppppppppppppppppppppppppppppppppppppppmmmmmmmmmmmmmmmmmmmmmmmmmmmmmmmmmmmmmmmmmmmmmmmmmmmmmmmmm0* .      ",
"                                                                                              -ut        ;:|||||||||||||||||||||||}}:,,;!hpppppppppppppppppppppppppppppppppppppppppppppppppppmmmmmmmmmmmmmmmmmmmmmmmmmmmmmmmmmmmmmmmmmmmmmmmmmmmmmmmh1+.        ",
"                                                                                              -ut         @::}|||||}}||||||||||333|}:,]^_hpppppppppppppppppppppppppppppppppppppppppmmmmmmmmmmpppppmmmmmmmmmmmmmmmmmmmmmmmmmmmmmmmmmmmmmmmmmmmmmmmph1*           ",
"                                                                                              -ut           ;:}3||||||||||||||||3|}}:,]^_hppppppppppppppppppppppppppppppppppppppmmmmmmmmmmmmmmmmmmmmmmmmmmmmmmmmmmmmmmmmmmmmmmmmmmmmmmmmmmmmmmpph1*             ",
"                                                                                              -ut            @;:}}}|||}}}}}}}}}}|}}}://^2hpppppppppppppppppppppppppppppppppppppppppppppppppppppppppppmmmmmppmppppppmmmpppmmmmmmmmmmmmmmmmmmhh01*                ",
"                                                                                              -ut               @;^:}}}}}}}}}}}}}}}::<[<9hppppppppppppppppppppppppppppppppppppph011111111111111111111111111111111111111111111111111111111!*+.. @                ",
"                                                                                              -ut                    @@@@@;;;;;;;^^^<<569hpppppppppppppppppppppppppppppppppppmph_^])))))))))-,,,,,,%...%%%%%%--%--%%%%%){{{{{{{{{{)>%+                          ",
"                                                                                              -ut                        +----)))//<55bcdhppppppppppppppppppppppppppppppppppppph_^]))))),),),------%    %%-%-------%%--){{{{))))))>>>%.                         ",
"                                                                                              -ut                       .%--)))){/<56bccdhppppppppppppppppppppppppppppppppppppph_^);;;;;;;;;;;;;;;;@@@@@@;;;;;&;;;;&&;-))){)>>)))>>>>>+                         ",
"                                                                                              -ut                       .%))--){/<<66bcckhpppppppppppppppppppppppppppppppppppppp000000000000000000000000000000000000001))){)>>>)>>>>)>%.                        ",
"                                                                                              -ut                       .%----){/<56bcca9hpppppppppppppppppppppppppppppppppppppppppppppppppppmmmmmmmmmmmmmmmmmmmmmmmmmh_),])>-))))))))-%                        ",
"                                                                                              -ut                       +---)){/<566bb56_hppppppppppppppppppppppppppppppppppppmmmmmmmmmmmmmmmmmmmmmmmmmmmmmmmmmmmmmmmmh_),>)-----))))))-+                       ",
"                                                                                              -ut                       %--))){/<555<</^_hppppppppppppppppppppppppppppppppppppmmmmmmmmmmmmmmmmmmmmmmmmmmmmmmmmmmmmmmmmh_-,>))----))))))-%.                      ",
"                                                                                              -ut                       %---))/<555<</[^_hppppppppppppppppppppppppppppppppppppmmmmmmmmmmmmmmmmmmmmmmmmmmmmmmmmmmmmmmmmh_-,>)----))))----%.                      ",
"                                                                                              -ut                       +%--))/<<555<//^_hpppppppppppppppppppppppppppppppmmmmmmmmmmmmmmmmmmmmmmmmmmmmmmmpmmmmmmmmmmmmmh_-,>))-----------%+                      ",
"                                                                                              -ut                       +%--)){/<55<///^2hpppppppppppppppppppppppppppppppmmmmmmmmmmmmmmmmmmmmmmmmmmmmmmmmmmmmmmmmmmmmmh_-,>-)-----------%+                      ",
"                                                                                              -ut                       .%%--)){<<<<<5562hpppppppppppppppppppppppppppppppmmmmmmmmmmmmmmmmmmmmmmmmmmmmppmmmmmmmmmmmmmmmh_-,>-)--%--------%+                      ",
"                                                                                              -ut                        +%--))){{{/<<[62hpppppppppppppppppppppppppppppppmmmmmmmmmmmmmmmmmmmmmmmmmph0110hhpmmmmmmmmmmmh_-,>---%%--------%+                      ",
"                                                                                              -ut                        .%%------)))]]^!hppppppppppppppppppppppppppmmmmmmmmmmmmmmmmmmmmmmmmmpmmph!      *0hmmmmmmmmmmh_-,,----------))-%+                      ",
"                                                                                              -ut                          +%---))))),,;!hpppppppppppppppppppppppppmmmmmmmmmmmmmmmmmmmmmmmmmmpmmh*        .1hmmmmmmmmmh_-,,---------)))-%.                      ",
"                                                                                              -ut                           %%--)))))]];!hpppppppppppppppppppppppppmmmmmmmmmmmmmmmmmmmmmmmmmmpph*@          0pmmmmmmmmh_-,,---------)))-%.                      ",
"                                                                                              -ut                           ..%--)))),,;!hpppppppppppppppppppppppppmmmmmmmmmmmmmmmmmmmmmmmmmmmp0@.          ~hmmmmmmmmh_-,,---------)))-+                       ",
"                                                                                              -ut                            ...%---->>;!hpppppppppppppppppppppmmmmmmmmmmmmmmmmmmmmmmmmmmmmmmmp1@           +hmmmmmmmmh_;,,--------)))-%+                       ",
"                                                                                              -ut                                ..+@%%@*hppppppppppppppppppppmmmmmmmmmmmmmmmmmmmmmmmmmmmmmmmmp1            *hmmmmmmmmh(;,,;-------)))-%.                       ",
"                                                                                              -ut                                      @ 0ppppppppppppppppppppmmmmmmmmmmmmmmmmmmmmmmmmmmmmmmmmp0 .          !hmmmmmmmmh~;,,;-------)))-+                        ",
"                                                                                              -ut                                      @@!ppppppppppppppppppppmmmmmmmmmmmmmmmmmmmmmmmmmmmmmmmmmh!.         .0mmmmmmmmmh!;,,;---))))))-%.                        ",
"                                                                                              -ut                                         0pmmppppppppppppmmmmmmmmmmmmmmmmmmmmmmmmmmmmmmmmmmmmmph!     @@ +0hmmmmmmmmmh%-->---))))))-%.                         ",
"                                                                                              -ut                               ..        !hmmpppppppppppmmmmmmmmmmmmmmmmmmmmmmmmmmmmmmmmmmmmmmpph1*    +1hmmmmmmmmmmp1%%%%-------)--+                          ",
"                                                                                              -ut                              .++         1hppppppppppppmmmmmmmmmmmmmmmmmmmmmmmmmmmmmmmmmmmmmmmmmmhhh0hhmmmmmmmmmmmh0+  .%%%%-----%%                           ",
"                                                                                              -ut                              .%%.       ..1hmppppppppppmmmmmmmmmmmmmmmmmmmmmmmmmmmmmmmmmmmmmmmmmmmmmpmmmmmmmmmmmmmh!      ..++%++.                            ",
"                                                                                              -ut                              .++        .  1hmpmpppppppmmmmmmmmmmmmmmmmmmmmmmmmmmmmmmmmmmmmmmmmmmmmmmmmmmmmmmmmmmh!                                           ",
"                                                                                              -ut ..................                         .1hppmmpppppmmmmmmmmmmmmmmmmmmmmmmmmmmmmmmmmmmmmmmmmmmmmmmmmmmmmmmmmmh!                                            ",
"                                                                                              -ut ...+%%%%%%%%%%%%++.                       @@ $0hpmpppppmmmmmmmmmmmmmmmmmmmmmmmmmmmmmmmmmmmmmmmmmmmmmmmmmmmmmmmh0+  .                                          ",
"                                                                                              -ut .+%%>>>>>>>>>>>>%++                            !0hpppppmmmmmmmmmmmmmmmmmmmmmmmmmmmmmmmmmmmmmmmmmmmmmmmmmmmmmh0*                                               ",
"                                                                                              -ut +%%>){{{{{{{{{)>>%%.. ...                        *0hhpmmmpmmmmmmmmmmmmmmmmmmmmmmmmmmmmmmmmmmmmmmmmmmmmmmph01*                                                 ",
"                                                                                              -ut.%>>){{{{{{{{{{{)>>%%+++++...                        !10hppmmmmmmmmmmmmmmmmmmmmmmmmmmmmmmmmmmmmmmmmmmphh01!                                                    ",
"                                      ...++%+++.                   ..                 ......  -ut%>>{{{//////////{{)>%%+%%%%%+.                     .    .!00hhhpppmmmmmmmmmmmmmmmmmmmmmmmmmmmmmmmhhh01!   @                                                    ",
"                                      ..+%%-%%%+.                   ..           .....+%%%%%%%)utfffiiiiiiiiiiiiiiiffffffffffffffffffffffffffffffffffffffffffffgkkqqqqqqqqqqqqqqqqqqqqqqqqqqqqqqkkffffffffffffffffffffffffffffffffffffffffffffffffffffffffffffff",
"                                   ...++%%%%%%%++..............................+++++%%%>>,,)>>/ttuuuuuuuuuuuuuuuuuuuuuuuuuuuuuuuuuuuuuuuuuttuuuuuuuuuuuuuuuuuuuttttuuuuuuuuuuuuuuuuuuuuuuuuuuuutttuuuutuuuttuuuuuuuuuuuuuuuuuuuuuuuuuuuuuuuuuuuuuuuuuuuuuuuuuuuu",
"                                 ..++$###,,,,$#$$$$++++++++++++++++++++++$$$$++$$,,,,,,]]]]]]]]]]{{{{{{{{{{]]]]]]]]]]]{{>>>>>>>>>>>%%+..    ...                                                                                                                 ",
"                                 ..+####,,,,,###########$$$$$$$$$$$$$$$$$$$$$$$=,,,]]]]]]]/////////<<<<222222252<<<<<<//]]]]]]]]]]]],>>%++...                                                                                                                   ",
"                                ...+##,,,,,,,###########==========$$$$$$===,==,~]]]/]]]////<<<<<<2222222222255555555522(((]~~~~~~~~~~],,$$+...                                                                                                                  ",
"                               ...+###,,,,,,====###==================,,,,,,~~]]](////////<<<<<55522222888888888888888822(((((~~~~~~~~~~,,$$++..                                                                                                                 ",
"                              ....+###,,,======##=====,,=~~~~~~~~~~,,~~]]]]]](/<<<<<<<<<<5555555555888888bbbbbbbbbbb99922(((((((]~~~]],,,$$$$$+..   .....                                                                                                       ",
"                              ....+###,,,======#===,,~~~~~~~~~~~~~]]]]]]]((((<2555555555588888888888888bbdddddddddddb99922(((((((]~~]],,,,,,,$$%++.......                                                                                                       ",
"                              ....+####,,==========,~]]]~~~~~~~~~~]]]]]]((<<<255555558888bbbbbbbbbbbbbbdddddddddddddb9999922(((((((]]]],,,,,,,,$$$+++....                                                                                                       ",
"                          ........+###,,,=========,~]]]]~~~~~~~~~~]]]]]/<2555585555888bbbbddbbdbbbbddddddgggggdddddddddd99922222(((((]]]~~~,~,,==$$$+++.......                                                                                                  ",
"                         .........+###,,,=======,~~~]]]]~~~~~~~~~(]]//<5588888888888bbbbdddddddddddddggggggggggggggggddddd9822222((((((((((~~~~~====$$$$$$$$+......                                                                                             ",
"                         .........+##,,,,=====,~~~~]]]]]]]]]]]]](<<<<588bbbbbbbbbbbddddgggggggggggggggiiiggggggggggggggggdd9898822(((((((((((]~~~~~~,$$,,$,$$.......                                                                                            ",
"                         .........+##,,,,=,,,~~~~~]]]]]]]]]]]]]/<5888bbbddddddbddddgggggiiiiiiiiiiiiiiiiiiigggggggggggggggdd99999222222222(((((]~~~~,,,,,,,,$+......                                                                                            ",
"                         ........++##,,,,,,,,]]]]]]]]]]]]]]]]//56bbbcccccccccccccfgggfggiiiijjjjjjjjjjjjjjjgggggggggggggggddd99999999988222((((((]~~~~~===,=$$+.......                                                                                          ",
"                            .....++##,,,,,,,,]]],]]]]]]]]]///<5bcccfffffffffffffffffffijjjjjjjjjjjjjjjjjjjjgggggggggggggggddd999999999988222(((((((]~~~~~~===$$$$++......                                                                                       ",
"                            .....++$#,,,,,,,,]]]]]]]]]////<<56bfffffffffffffffffiiiiiiijjjjjnnnnnjjjjjjjjjjiggiiiggggggggggddd9999999999982222((((((~~~~~~~~~====$$+.....                                                                                       ",
"                            .....++###,,,,,,]]]]]]]]]/[[<<56bcfiiiiiiiiiiiiiiiioooooooonnnnnnnnnnnnjjjjjjjjjiiiiiiggggggggggdd99999999999999222((((~~~~~~~~~~~,,,,$$+....                                                                                       ",
".....                         ...+$$#,,,,,,]]]]]]]]//[[[<56cfiiiiiiiiiiiiioooottttooooonnnnnnnnnnnnjjjjjjjjjjijjiiggggggggggddd999999999999992222(((~~~~~~~~~~~~~,=$++...                                                                                       ",
".....                         ...+$%%%,,,,]]]]]]]]//<<5566bfiiiiiiiiiiioootttttttttttttttnnnnnnnnnnnjjjjjjjjjjjjjjgggggggggggddd999999999999992222((((~~~~~~~~~~~~=$$++.......                                                                                  ",
".....                         ..++$%%%,,,,]]]]]]]]//<<66bccfiiiiiiiiooottttttttttttttttttttnnnnnnnnnjjjjjjjjjjjjjjgggggggggggdddd999999999999982222((((((~~~~~~~~~~,%++.......                                                                                  ",
".....                         ..++$%,,,,,,]]]]]////<56bbccfiiiiooootttttuttttttttttttttttttnssnnnnnjjjjjjjjjjjjjjgggggggggggggddddddd99999d999992222(((((((~~~~~~~~,%+++++....                                                                                  ",
".....                         ..++$%,,,,,,]]]/]///<56bcffiiooootttttuuuuuuuutttttttttttttttnssnnnnnjjjjjjjjjjjjjjjjjjggggggggggddddddddddddd9999992222((((((~~~~~~~,$$$$$$$++..                                                                                 ",
".....                         ...++$%,,,]]]]]/<<<56bccfiiioottttuuttuuuuuuuutttttttttttttttnssnnnnnjjjjjjjjjjjjjjjjjjgggggggggggdddddddddddd99999882222(((((]~~~~~~===$$$$$$$++.........                                                                        ",
"++...                         ...+++$,,]]]///<56bbcccfiioootttuuuuuuuuuuuuuuutttttttttttttttsssnnnnjjjjjjjjjjjjjjjjjjgggggggggggdddddddddddddd999998222((((((]~~~~~===#$$$$$$$+.........                                                                        ",
"+++++..                       ...+++%,,]]//<<56bccccfiioottuuuuuuuuuuuuuuuuuuttttttttttttttnssnnnnnjjjnnnnnnnnjjjjjjjjggggggggggggggdddddddddddd999822222(((((~~~~~~====$$$$$$+.........                                                                        ",
"++++++....                    ..+++%,,]]//<<5bbccffioootttuuuuuuuuuuuuuuuuuuuttttttttttttttnnnnnnnnnjjnnnnnnnnnjjjjjjjjjjjgggggggggggddddddddddd9998222222((((~~~~~~~===$$$$$$+............                                                                     ",
"++++++....                    ..+$%,,,]//<56bbcffiiootttuuuuuuuuuuuuuuuuuuuuuuuuuttttttttttnssnnnnnnnnnnnnnnnnnjjjjjjjjjjjjgggggggggggddddddddd99999222222((((~~~~~~~====##$$$$++++++++...........                                                              ",
"++++++....                    ..+%,,,]/<<5bbcffiioottuuuuuuuuuuuuuuuuuuuuuuuuuuuuttttttttttnsnnnnnnnnnnnnnnnnnnjjjjjjjjjjjjjjgggggggggdddddddd999999222222((((~~~~~~~=====#$$$$+$$$$$$$+..........                                                              ",
"++++++....                    ..+,,,]]/56bcffiooottuuuuuuuuuuuuuuuuuuuuuuuuuuuuuutttttttttttsnnnnnnnnnnnnnnnnnnnnnjjjjjjjjjjjjjjgggggggddddddd99999992222(((((~~~~~~=======$$$$$$$$$$$$$++........                                                              ",
"$$+$$++...                    ..%>){{/<6bcfiotttuuuuuuuuuuuuuuuuuuuuuuuuuuuuuuuuuutttttttttssnnnnnnnnnnnnnnnnnnnnnnnjjjjnnjjjjjjjjgggggggdddd9999999922222((((~~~~~~=========$$$$$$$$$$$++++...........                                                         ",
"#####$$+.                      .%-){{<6ccfiotttuuuuuuuuuuuuuuuuuuuuuuuuuuuuuuuuuuuuutttsssssssnnnnnnnnnnnnnnnnnnnnnnnnjnnnjjjjjjjjjgggggggddd9999998822222((((]~~~~~========$$##$$$##$$$$$$$++++++......                                                        ",
"#####$$+.                      +-){/<6bfioottuuuuuuuuuuuuuuuuuuuuuuuuuuuuuuuuuuuuuuutttssssssssssnnnnnnnnnnnnnnnnnnnnnnnnnnjjnnjjjjgggggggdddd999998222222((((]~~~~~========$$##$$$$$$$$$$$$+$$$++......                                                        ",
"#####$$++                     .%)/<6bcfoottuuuuuuuuuuuuuuuuuuuuuuuuuuuuuuuuuuuuuuuuuuutsssssssssnnnnnnnnnssssssssnnnnnnnnnnnnnnjjjjgggggggggdddd9998822222((((~~~~~~=======$$$##$$$$$$$$$$$$$$$$+++++.......                                                    ",
"#####$$$+.                   .%)/56cfiottuuuuuuuuuuuuuuuuuuuuuuuuuuuuuuuuuuuuuuuuuuuuutsssssssssnnnnnnnnnnssssssssnnnnnnnnnnnnnjjjjgggggggggdddddd9982222(((]~~~~~~~=======$$$##$$$$$$$$$$$$$$$$$$+++++.....                                                    ",
"#####$$$$+.....           ...+>{<6cfiotuuuuuuuuuuuuuuuuuuuuuuuuuuuuuuuuuuuuuuuuuuuuuuutsssssssssnnnnnnnnnnnsssssssssnnnnnnnnnnnjjjjgggggggggggggdd999222((((]~~~~~~~=======$$$####$$$$$$$$$$$$$$$$$$$$$++...                                                    ",
"#####$$$$$.....            ..%{/6bfiootuuuuuuuuuuuuuuuuuuuuuuuuuuuuuuuuuuuuuuuuuuuuuuutsssssssssnnnnnnnnnnnsssssssssnnnnnnnnnnnjjjjggggggggggggggd999222((((]~~~~~~~=======$$$####$$$$$$$$$$$$$$$$$$$$$+++..                                                    ",
"#####$$$$$+....            .+>{<bciiottuuuuuuuuuuuuuuuuuuuuuuuuuuuuuuuuuuuuuuuuuuuuuuutssssssssssnnnnnnnnnnssssssssssnnnnnnnnnnjjjjggggggggiiggggdd99222((((~~~~~~~~=======$$$##=#$$$$$$$$$$$##$$$$$$$$++++.                                                    ",
"#####$$$$$++...           .+%{<6cfiootuuuuuuuuuuuuuuuuuuuuuuuuuuuuuuuuuuuuuuuuuuuuuuuutssssssssssnnnnnnnnnnsssssssssnnnnnnnnnnnjjjjggggggggiiigggdd99222(((((]~~~~~~==========$$$$$$$$$$$$$$$$$$$$$$$$$++++.                                                    ",
"##===$$$$$$++..           .+>{<bfioootuuuuuuuuuuuuuuuuuuuuuuuuuuuuuuuuuuuuuuuuuuuuuuuutsssssssssnnnnnnnnnnsssssssssnnnnnnnnnnjjjjjjjjgggggiiiigggdd99222(((((((((~~~~=========$$$$$$$$$$$$$$$$$$$$$$$$$++++.....                                                ",
"##====$$==$++..          .++>{5bfiootuuuuuuuuuuuuuuuuuuuuuuuuuuuuuuuuuuuuuuuuuuuuuuuuutsssssssssnnnnnnnnnnsssssssssnnnnnnnnnnjjjjjjjjgggggiiiigggdd99222(((((((((~~~~~========$$$$$$$$$$$$$$$$$$$$$$$$$++++.....                                                ",
"#####=====$$+..        .+%%%>/5bfiootuuuuuuuuuuuuuuuuuuuuuuuuuuuuuuuuuuuuuuuuuuuuuuuuttssssssssnnnnnnnnnnnsnsssssssnnnnnnnjjjjjjjjgggjgggggggggggdd9922((((((((((]~~~~~~======$$$$$$$$$$$$$$$$$$$$$$$$$$+++++....                                               ",
"#####=====$$$++      .+%%%>>>/5bfoootuuuuuuuuuuuuuuuuuuuuuuuuuuuuuuuuuuuuuuuuuuuuuuttttssssssssnnnnnnnnnnnsnsssssnnnnnnnnnjjjjjjjjggggggggdddggggdd9822(((((((((((]]]~~~==$$$$++++++++++$$$$$$$$$$$$$$$$+++++....                                               ",
"####=========$$......+%>>,,,,/5dgoottuuuuuuuuuuuuuuuuuuuuuuuuuuuuuuuuuuuuuuuuttttttttttnnnsssssnnnnnnnnnnnssssssnnnnnnnnjjjjjjjjjjjggdbdbbddddddddb855<//((((((/]]]]]~,=$+++++..+++.....++++++++++++++++++++++...                                               ",
"###===========$....+%>>))>,,]/5dgoottuuuuuuuuuuuuuuuuuuuuuuuuuuuuuuuuuuuuuuuutttttttttnnnnnnsnnnnnnnnnnnnsssssssnnnnnnnnjjjjjjjjjjggb88888bdddddddb855<//(]~~~]],,,,,==$...........................+++++++++++...                                               ",
"#=============$+...+%>){{]]]]/5dgootuuuuuuuuuuuuuuuuuuuuuuuuuuuuuuuuuuutttuutttttttnnnnjjjnnnnnnnnnnnnnnnsssssssnnnnnjjjjjjjjnnjjjgdb55558bdddddddb85<///]~~==,,,$$$$$$+..............................+++++++.....                                              ",
"#==============++..+%){{//]]]/5dioottuuuuuuuuuuuuuuuuuuuuuuuuuuuuuuuuuttttttttttnnnnnjffjjjjjjnnnnnnnnnnnssssssssnnnnjjjjjjjjnnjjggb855558bdddddddb85<//{~~~==,,,$$$+++................................+..+++.....                                              ",
"##=============$$.+%>]//////{/8dgoottuuuuuuuuuuuuuuuuuuuuuuuuutttuttttooooooooiiiifffffccfffjjjjjjjnnnnnnssssssssnnnnjjjnnjjjnnjjgdb855558bdddddddb85<</]]]]]],,,$$+..........            ...  ...   .....++++....                                              ",
"##$$$===========$$**~(((((_(__8dgoottttttttttttttttttttttttttttoooooiifffffffccccccccccccccfjjjjjjjjnnnnnssssssssnnnnjjjnnjjjnnjjgbb85<558bdddddddb85<<///////],,$$++.........            ...  ...   .....++++....                                              ",
"$$$$$=============*~(____((((29dgootttttttttttttttttttoooooooiiiffffffcccccccbbbbbbbccccccccjjjjjjjjnnnssssssssssnnnnnnnnnjjjnnjjgbb555558bdddddddd8852<<<<///]],,$$+.........          ...            ....+++....                                              ",
"$$$$$$$$===========~_____((((29dgiootttttttttttttttttooooiiiffffcccccccbbbbbbbbbb6bbccffffffjjjjjjjnnssssssssssssnnnnnnnnnjjjnnjjcbb555558bdddddddddb885552<<//]],,,,%$$$$$$%+++++++.   ..........................                                              ",
"$$$$$$$$=======****~((222_____29diiootttttttttttttttnnnnjjjffffccccccccbbbbbbbbbbbbccfffffffjjjjjjnnssssssssssssssnnnjjjjjjjjjjjfcbb85558bbcccfffffccbbb6655<<//{))),,,,]]]]),,,,,,-%.  ..........................                                              ",
"$$$$$$$$=======***~((2222_____28dgiiootttttttttttttnnnnnnjjjffcccccbbbbbbbbbbcccccccffijjjjjjjjjjjnsssssssssssssssnnnjjjjjjjjjjjfcbbb88888bcccffffffcccbbb65<<<///{//////////]]]]]]),%+...........................                                              ",
"$$$$$$$$===~===**~~((2222_____28dggiiottttttttttttttnnnnnjjjffccccbbbbbcccbbccccccffffijjjjjjjjjjnnsssssssssssssssnnnnnjjjjjjjjjfcbbbbbb88bcccffffffcccccbb655<<<<<<<<<<<<<<<</]]]]]],,$$$+++.....................                                              ",
"$$$$$$$$$$=====**~~(22922______8bdgiiotttttttttttttttnnnnnjjjjfccccccccccccccccccfffffijjjjnnnnnnnssssssssssssssssnnnjjjjjjjjjjjfccbbbb888bccccffffffffcccbb66666666666666655<<///]]]]~~,,,,,$....................                                              ",
"$$$$$$$$#======**~~(29992___!__8bggiotttttttttttttttttttttnnnnjjjffffffffffffgggggggiiijnnnnnnnnnnssssssssssssssssnnjjjjjjjjjjjjfcbbbb8b8bbccccfffffffccccbbbbbbbbbbbbbbbb66655<<//]]]]]~~~,,$+++.................                                              ",
"$$$$$$$$#====~~*~~~(29992___!__8bgioottttttttttttttttttttttttttnnnjjjjjiiiiiigggiiiiiiijnnnnnnnnnsssssssssssssssssnnjjjjjjjjjjjffcbbb66866bbcccfffffffccbbbbbbbbbbbbbbbbbb666666<<<<((]]~~]~,,%$+....++++++++++++.                                              ",
"$$$$$$$$#====~~*~~~(299922__!!_8dgiootttttttttttttttttttttttttttnnnnnnniiiiiiiiioiiiiiinnnnnnnnnnsssssssssssssssssnnjjjjjjiiiifffcbb6886558bbccffffcccbbbb66666bbbbbbbbbbbb666666552<<(]]]~~,,,,%$+++++$$$$$+++++.                                              ",
"$$$$$$$$#===~~~*~~~(299922_!!!_8dgoottttttttttttttttttttttttttttnnnnnnjiiiiiiiiiiiiiiijnnnnnnnnnnsssssssssssssssssnnnjjjjjiiiifcccb666555566bbcccccbbb665555555555566666666666666552<<(]]]~,,,,,,%$$$$$$====$$$++.                                              ",
"$$$$$$$$$=**~~~*~~~(299922_!!!_9dkoottttttttttttttttttttttttttnnnjiiiffccccccbbcfffiiionnnnnnnnnnsssssssssstttttttsnnnjjjjiiifccb6655<<<<<566bccbb6655<<//////<<<<<<<<<<<<<<<<<<<<////]]]]]],,,,,,=$$=========$$+.                                              ",
"$$$$$$$$$=***~~~~~~(299922_!!!_9dkoottttttttttttttttttttttnnnjjjffccbb6555555<556bcffijnnnnnnnnnnssssssssssttttttttnnnnjjjiiffcb655<<//<<<5566bb65<<//{{{]]]///<//////]]]]]]]],,,,,,,,)),]]],,,,,,,===========$$+.                                              ",
"$$$$$$$$$$***~~~~~~~229922__!__9dgkotttttttttttttttttnnnnnjjjfccb855</{{>>>>>>>{/<56bcfjjjnnnnnnnsssssssssstttttttttnnnnjjiffcb85<//{{{//<<55665<//{{>>>>)]]]//]],,,),,,,,,,,%%$+++++++%,,,,,,,),,,===========$$+.                                              ",
"$$$$$$$$$$***~~~~~~~(29922_____29gioottttttttttntnnnnnnjjjjfcb855/{)>%%+ ..++ .%>>{/56bcjjjnnnnnnnssssssssstttttttttnnnnjjffcb5<</{>>>>{/<<<55<</{)>>%>>>,,)),,,%%%$$$$$+++++++.........++%,,,,,,,,===========$$+.                                              ",
"$$$$$$$$$$****~~~~~~_29922_____29dkiottttttttooooiiooooiiffcb5<{)>%+...         %%>{/<6bfjjjnnnnnnnssssssssssssstttttoooiffcb65/{)>%%%>{{/<<<</{)>%%%%%%%%%$++. ......+...................++$%%%%%$$$$$=======$$+.                                              ",
"$$$$$$$$$$****~~~~~~!_2222______29dgoottttttooiiiiiiooifcc65<{>>>>+....     6fff<%-){/58cfjjjnnnnnnssstuuttsssssttttttooifcb65fifc%%++%>{/<<</)>%%+++++++++.....5fff<+..6fff)................+++++++%$$=======$$+.                                              ",
"$$$$$$$$$$*****~~~~~!!_222___!__299dgoooooooiiiiiooooib65<{{))>{{{/6666/ .  cuuu6%%>{{<5bcffjnnnnnnnstuuuuttssssttttttooifc65<tuut.+++%>{////{>%+...+++..%%%++..cuuu6. .iuuu{.......................++$$======$$+.                                              ",
"$$$$$$$$$$**********!!_222__!!!__29bdiiiiiiiiifffuuuuu6//{{///<565ouuuuf    cuuu6%%>>{/<8bccfjnnnnnnnsuuuuttssssttttttoifcb5/{tuut +++%%>{{{{>%+....++++>,]]]%..cuuu6  .iuuu{........................++$======$$+.                                              ",
"+++++$$$$$************~(2___!!!___29bdgggggiigdbbuuuuui){<5556bcffuuuuuf    -{{{-%>>>){{/58bciioonnnntttttttttttttttttoifb6<{{tuut ...+%-)))>%+.....+%%>>/<5<,. cuuu6  .iuuu/.........................+$=======$+.                                              ",
"+++%%$$$$$************~((___!!!___229ddggddddb85<uuuuuu</5bbbbcfituuuuuf     .+%->{{{{{){/<5bfiionnnntttttttttttttttttoicb5/))tuut .  ..+%%%++......+>)))/<6<]+ cuuu6 ..iuuu/...........          ....+$=======$+.                                              ",
"+%%%%$$$$$************~~(___!!!___228bdggdddb85/{uuuuuui<6ccbbbcfuuuuuuf      +%>>{{{{))){{/6cfionnnnttttttttttttttttooic6<{))tuut ..%-% .+....... .%{</{{<5<,. cuuu6   iuuu/ ..........          ....+$=======$+.                                              ",
"+%%%%$$$$$*************~~__!!!!__2299dgggggddb85<uuufuuu66bb6556ouuituuf    booo6>{{oooc>6ottutoonnnnttuuutttttttuuuuuuoc6/)--tuut.6otutob%.......)cotuuti6/],. cuuu6   iuuu{ ..........         .....+$=======$+.                                              ",
".+%%%***%%*****$*******!!!!!!!!_2299ddgiiiiiiggccuuuituuibb655<6tuu6tuuf    cuuu8,]]uuuoiuuuuuuutnnnntuuuutttttuuuuuuuuuuc/-%-tuutiuuuuuuui-. .. 5tuuuuuuuui)%  cuuu6   iuuu/.............  ..........+$=======$+.                                              ",
"..++%%%%%%+++++++$*$****!!!!!!__299ddgiiootoooooouuutouuufbb665iuuo%tuuf  ..cuuu8~]]uuuuuoffouuuutnnnnuuuuttttuuuuttttuuuu5-%-tuuuuoccftuuuc.   <tuuuifftuuuf%..cuuu6...iuuu/++++++++...... ..........+$=======$+.                                              ",
"...+++++++%+++..+++++********!_299ddgiooottttttttuuutouuuoffccbtuub{tuuf%%%%fuuu8~]/uuutc5566fuuuunnnnuuuuotttuuutooooouuuf-%-tuut5 ...<uuut+  -ouut6{<55ouuu/%%cuuub-%-iuuu<->>>>%%$+$+... ..........+$=======$+.                                              ",
".....+++++++++....++++++*****!_29ddggoottttttttttuuutotuuuoiifouut66uuui{{))fuuub(<<uuut666b6ctuuunnnnuuuuoontuuutooooiifc<-%-tuut  ....ouuu)  6uuuf)/<55cuuuc//fuuuc{{{iuuu<{{{{)>,,,,%%+............+$=======$+.                                              ",
" ...++%%%>>%%%+.   ...+++++**!_29dggiotttttttttttuuutootuutiiiuuuibcuuui<<<<fuuud22<uuut55688btuuuoooouuuuoooouuuuuttoicb5/>%>tuut .... iuuu{..fuuuoiioooouuui66fuuuc<<<iuuu5{{{{)>>>>>>%++++........+$$=======$+.                                              ",
">>){{{{//{/{{{>%%+. .....+++*!_29dggootttttttttttuuutootuuuoiouutfcfuuuo6555fuuud22<uuut55558btuuuoooouuuuoooootuuuuuuutf5{>%>tuut .... iuuu{..iuuuuuuuuuuuuuo66iuuuf55<ouuu5{//{{{>>>>%%+++++++++++++$$=======$+.                                              ",
"<566bbbb66555</{)>+.     ..+*>_2bggiottttttttttttuuutooouuutouuuofcfuuuo6665iuuud22<uuut5<558btuuuoooouuuuooooooottuuuuuuo/>%>tuut .....iuuu{..iuuuoooooooooof66iuuuf666ouuu6{///{{{>>>%%%+++$$$+++++$$$$#=====$+.                                              ",
"cffffffffcccbb65</)>%+.      >/2bggiottttttttttttuuutoootuuutuutifcfuuuob666iuuud255uuut5558bdtuuuoooouuuuooooooooooootuuuf>%-tuut .....iuuu{..cuuuc<56666666666iuuuf666ouuu6/////{{{)>>%$+++$$$$$$$$$$$=======$+.                                              ",
"ffffiiiifffffcccb65/{)-%     >{2bggiootttttttttttuuutoooouuuuuuoffgfuuuobbbbiuuud255uuut558bdgtuuuoooouuuuoontuutoooooiuuuo,>-tuut ++++.iuuu{+$5uuuo<<66666666bbiuuuf666ouuu6///////{{)>,$$++$$$$$$$$=========$$+.                                              ",
"fffffiiiiiffffffcccb8<{{-+  +-{29dgiottttttttttttuuutooootuuuuuiffgguuuobbbbouuud555uuut88bdggtuuuoooouuuuoontuuutoooiouuui~>)tuut ++++.iuuu{$$>iuuuo6666bftcb6biuuuf666ouuu6////////{{),,$$$$$$$$$$$=========$$+.                                              ",
"fffffiiiiifiiifffffccb55{{>%->{_8dgiottttttttttttuuuuooooouuuutiffgguuuobbbbouuug88buuutbbddggtuuuoooouuuuoontuuuuuutuuuut5],)tuut ++$++iuuu{$,>/ouuuutttuuutcbciuuuf666ouuu6/<<<<<////{],,,$=================$$+.                                              ",
"fffffiiiiiiiioooiiiijjccb5</{{/_5dgiottttttttttttuuuuooototuuuoiifgguuutddddouuuiddcuuutcddgggtuuuoooouuuuoonnttuuuuuuuutb<]>)tuut ++$++iuuu{,~{/<ituuuuuuuuicccouuuibb6ouuu655<<<<<////]]]],,,===============$$+.                                              ",
"fffffiiiiijnnnnnnnnnnnnjffcb88889bdgioottttttttttttttottooottooiigggoooiggggioooggggiooigggggioottoooottttoooooootttttofb6<]]>6bb6$+$+++5bbb>,]/<<58fooooofcccfffooifccbcfff666555<<<<<////]]~~================$+.                                              ",
"fffffiiiiijnnnnntttttttttnjjffgggggggiooottttttttttttoooooooooooiiigiiiiiiiiiiiiiiiiggggiiiiiiiiooooooooottttoootottooifc6</],,,==$$$++$++$$,,]/<58bbccfffffffffffffffcccbbbb6666552<<</////]~~================$+.                                              ",
"fffffiiiiojnnnnttttttttttttnnnoiigggggiiiooooooooootttoooooooooooiiiiiiiiiiiiiiiiiiiiiiiiiiiiiiiootttttttttttttttttoooifc65/]],,==$$$+++$$$$,]//288bccfffffffffffffffffcccbbbbbb6552<<</////]~~~===============$+.                                              ",
"fffffiiiiojnnnntttttttttttttttoooiiiiggggiiggggdggiooooooooooooooiiiiiiiiiiiiiiiiiiiiiiiiiiiiiioottttttttttttttttttttoofc65<]],,===$$$$$$$$,,]//58bdcfffffffffffffffffffcccccbbb655<<<</////]~~~~~~~~==========$+.                                              ",
"fffffjjjjjjnnnntttttttttttttttttoooooiggggdbb99889bdggiiioooooooiijjjjjjiiiiiiiiiijjjjiiiiiiiiioottttttttttttttttttttooidb52(~~*************~](<58bddffiiiiiffffffffffffcccccbb8855<<<</////]~~~~~~~~~~~========$+....                                          ",
"ffffjjjjjjnnnnnttttttttttttttttttooooigggdb822222225588bbdggggiiiijjjjjjiiiiiigggjjjjjiiiiiiiioottttttttttttttttttttttoidb52(~~*************~((<58bddggiiiiiffffffffffffcccccbb8855<<<</////]~=~~~~~~~~~~~~~~====$%...                                          ",
"ffffjjjjjjjnnnnttttttttttttttttttttooigggd82_______{//<558bbbbdggijjjjjjiiiiiigiijjjjjjiiiiiiooottttttttttttttttttttttoidb52(~~************~~((<58bddggiiiiiiiiiifffffffcccccbb8852<<<<////]]~~~~~~~~~~~~~~~~~~~,,%..                                           ",
"ffffjjjjjjjnnnnttttttttttttttttttttooigggd82_____!!{{////<5558bbdgjjjjjjiiiiigggggjjjjggiiiiiootttttttttttttttttttttttoigb82(~~************~~((<58bddgiiiiiiiiiiiiifffffcccccbb8852<<<<////]]~~~~~~~~~~~~~~~~~~,,,%..                                           ",
"fffffjjjjjjnnnnttttttttttttttttttttojjggdb82_______________222588bddddgggggggggggggggggggggiioottttttuuuuuuuuuuuuuuuttoigb82(~~************~~((2289ddgiiiiiiiiiiiiiffffcccccbbb885<<<<<////]]~~~~~~~~~~~~~~~~~~,,,%..                                           ",
"fffffjjjjjjnnnnttttttttttttttttttnnnjjggdb82_______________2__22258888bddddddddgggddgddddddggiootttttuuuuuuuuuuuuuuuutoigb82((~~**********$=~~](2299bdggiffffffffffffccccbbbb66555<<<<<<///]]~~~~~~~~~~~~~~~~~~,,,%..                                           ",
"ffffijjjjjjnnnnttttttttttttttttttnnnjjggd982________________________228889889bddddddddbbbbbbdgiotttttuuuuuuuuuuuuuuuutoogd822((~~~********$===~~~(228bddgffffffffccccccbbb6666555<<<<<<////]]~~~~~~~~~~~~~~~~~~~,,%+..                                          ",
"ffffijjjjjjnnnnttttttttttttttttttnjjjgdbb852____________22222________222255888888998888555588bgittttuuuuuuuuuuuuuuuuttoogd98222((~~~*****$$$$$===~](28bddccccccccccccbbbb65555555<<<///////]]~~~~~~~~~~~~~~~~~~~,,%+...                                         ",
"ffffijjjjjnnnnnssssssssssssssstttnjggddb882_____________22222_______222222555555888522______5bdiotttuuuuuuuuuuuuuuuuutooicb985522(~~~**$$$$$$$$$$$,]/58bdcccccccccbbbbb8855<<<<<<<<<///////]]~~~~~~~~~~~~~~~~~~~~,$+.                                           ",
"ffffijjjnnnnnnnssssssssssssssssttnjggdbb852________22_2222222______258888888888888522___!!!_<8diotttuuuuuuuuuuuuuuuuutooifcdb8852((~~**$$$$$$$$++$,]/<8bbbbbbbbbbbbb66665<<<<//////////////]]~~~~~~~~~~~~~~~~~~~==$+.                                           ",
"ffffijjjnnnnnnnssssssssssssssssttjjgdbb882_________2222222222_____28bdddddddddddb8852__!!!!!<8bgiotttuuuuuuuuuuuuuuuuttoiffdbb882((~**$$$$$$$$$++$$]]<588866666666665555</</////{{{{{{{{]]]]]~~~~~~~~~~~~~~~~~~~==$+.                                           ",
"ffffijjjnnnnnnnsssssssssssssssstnjggdbb852___2222222225585222____28bdgggggggggggdd9882_!!**!<8bgiotttuuuuuuuuuuuuuuuuttoiffdddb82((~**********$$++$,]/<55<5555555555<<<//{{{{))>>>>>>>>>,$,,,=~~~~~~~~~~~~~~~~~~==$+.                                           ",
"ffffiiiooonnnnntttstssssssssssstnjggdb885___22558888888888222___28dggggggggggggggddb95__!**!/8dgioottuuuuuuuuuuuuuuuutooiffggdb82((~******$$$$$++++%>{/<</////////////{{)>)>>>%%++++++++..+++$==~~~~~~~~~~~~~~~~=,%+.                                           ",
"ffffiiiooonnnnntttttssssssssssstnjggdb852___22258888888888522___5bgggggggggggggggddbb82_!**!/5dgioottuuuuuuuuuuuuuuuutoiifiggdd922(~*****$$$$$$++..+>){//{{{{{{{{{{{{)>%%%%++.               +$$,,~~~~~,,,,,~~~~=,>%.                                           ",
"cffffiiooonnnnnnttttssssssssssttnjggdb822___22258888889998822__28dgggggggggggggggddb985_!!*!/8dgioottuuuuuuuuuuuuuuuutoiifiiggd982(~******$$$$$+....%>){))))>>)))>>>>%+.   ...               .++%>,,,,,,,,,,~~~==,%+.                                           ",
"cccfffiiiijjjnnnttttssssssssssstnjgdd952____22288888889988822__28dgggggggggggggggddb9882_!*!/5bgioottuuuuuuuuuuuuuuuttoiiiiiggd982(~******$$$$$+....+%%>>>>>%%%%%>%%%+........                  .%%%%%%$===,=====,%+...                                         ",
"ccccffiiiijjjjnnntttttttttstttttogddb852____22288888888888522__29dgggggggggggggggddb9885__!!_5bgiiootuuuuuuuuuuuuuuutttoiiiiggd922]~**$**$$$$$%+.....+++++++++++++++..  ........                 .++++++$$$$$=,,,>%+.                                           ",
"6bbcccffffffjjjjnnnntttttttttttoigddb855<___22288888888888822__5dggggggggggggggggddb9885__!!!58dgiiotuuuuuuuuuuuuuuutttoiiiiggd92(~====$$$=$$%%+...............  ... .+%%%%---%%+.                .......++++$%,,%%+.                                           ",
"55566bbbbbcccfffjjjnnnnnnnnnttooigddb85552__2228888888888852___8dggggggggggggggggddb98882_!!!{5bbfittuuuuuuuuuuuuuuutttooiiiidb82~=====$$$=$$%%+.... ............+%%%%){{{)))))-%.                .........+++%,,%%+..                                          ",
"{//<<555688bbbccfjjjjnnnnnnnnnooigddb88552__22288888888888522__8dggggggggggggggggddb98882_!!*>_5bcittuuuuuuuuuuuuuuutttoooiigdb5(~=$===$$$=$$%%+................+%-)){////{{{))-+.                .........+++$%%%%..                                           ",
"{{{{{{/<<<558bbbcggijjjjjjjjjjjigddbbb85522222588888888888822__8dgiigiiiiiiiggggggdb98885_!*%%>{5bfttuuuuuuuuuuuuuuutttoooiigd85(~*$$$=$$$$$$%+.         .....+-){///<<<//{)))-%+.                   ......+.++++++.                                            ",
"]]]]]{{{{{{/<58bdgggfjjjjjjjjjigggddbbb8522258889988888888522__8dgiiiiiiiiiiiiggggdd98855/{*++%><bfottuuuuuuuuuuuuuutttoooiigdb5/>>*%$$$$$%%+++.         ....%){/<<<<<</{{))--%%.                      ......+++++.                                             ",
"]]]]]){{{{{{//<58bddffffjjjjffggggddddb888888999bb98888888522_28dgooooooooooooiiggdd9885</>%  +%{5cittutuuuuuuuuuuuttttoooiigd85/>**$$$$$$%+++.          ...%)/<<<<<<<</)))-%%+.                       ......++++..                                             ",
"///]]{{{{)>>>{{{/558bccfffffffgggddddddbb9999bddddb9888888822229giooooooooooooiiigddb885<{*+   %>/6ftttttuuuuuuuuuuttttooiiidd85/>*%+$$$$$+++..          ..%)/<555<<<//{)-%%+..                        ...........                                              ",
"///////{{{{>>>>>{{/<58bbcfffffgggdddddddbbbbddddddb9998888882229gioooooooooooooiiggdbb85/>%.    %{<cittttuuuuuuuuuuttttoooiicb8<{>%++++++++...           +-)/<<5565<</{)-%.                            ...........                                              ",
"((((/////]],,,,,,,]]{<58bdgggggggddddddddddddddddddbb9999999888dgooooooooooooooiiggddb5<{-+     +-{5bfotttttuuuuuuuttttoooofcb5/{%++++++++.....       ..+-){/<<<<<<</{)-+..                            ...........                                              ",
"<<((///////]]]]],,,,>{{/58bdgggggddddddddddddddddddddddddbbb999dgiooooooooooooiiigggdb5/>%        %{<8bfiottttttuuuttttoooifcb5{)%...++....  ..     .+%-)){/<<<<<//{))%+                               ...........                                              ",
"<<(((<<<////]]]]]]]]>>>{/58bdddddddddddddddddddddddddddddddddddddggiioooooooooiiigggb8<{-          %){/56cfiootttutttooooiffb6<{>+  ...........  .+%--)){{//////{)))-%+.                               ...........                                              ",
"<<<(<<<<</////]]]]]]]]]]]/<5899999999999bddddddddddddddddddddddggggiiooooooooiiigggb8<{-        +%%*>>>{/<8bdiiottttooooiffc6<{>%.  ......     .+%%>){{{//////{)>%%+. .....                            ...........                                              ",
"<<<<<<<<<(/////////////]](((22222222222589bdddddddddddddddddddgggggiioooooooooiigdb5/{>% +%%->>>{{{//<<<55558bdgioooiiggdbb5<{>+. ........   .+%%>>){{////]]]]],%++.. ........                         .....                                                    ",
"<<<<<<<<<(<//////////////((((((22((_____22889bbbddddddddddddddggggggiiioooooooigdb8<{>*%%>){{{{/5588bbbbb888888bdgggdbb885</{>%...........+%%-->))){{{{//]]]],,,$++...........                         .....                                                    ",
"((((<<<<<<<<<<<<<<<</////(((((222222___222222588889999999999ddddddddggigiiiiigdb85</{{{{/<<558bbcdgggggggggddbbbbddb855<///{{>>%%%%%%%%%%%-)))){{{{{{{{{{{]],,,$++............                                                                                  ",
"(((((((<<<<<<<<<<<<<<//<<<2222222222222222222222225888888888999999999ddddddddb855555558bbbbccccfjiiiiiiiiigggddddddb885<//////{{{{)){{{)>)){{{{{{{{{{{{]{]],,%$++.............                                                                                  ",
"(((((((<(((((((<<<<<<<</<<<<552228889999999998888888888888228888222289999988885588bbbccffffjjjjjjiiiiiiiiiggggggggdddb855555555<<<///////{{{{{{{{{{{]]]]]],,%$+++.............                                                                                  ",
"~~~((((((((/(((///<<<<//<<<<5588899999999999999999999999999999988222228888888bbbdgfjjjjjjjjjjjjjjiiiiiiiiggggggggggddbb8888888855<<<<<<////{{{{{{{{{]]],,,,$+++++.............                                                                                  ",
"~~~~]](((]]]]](///////////<<5588999999999999999999999999dd999999999999999999bdgggijjjjjjjjjjjjjjjiiiigiigggggggggggddbb888888888555<<<<<///{{{{{{{))],,,%$++++................                                                                                  ",
"~~~~~]]]]]]]]]]]]]]]]]/////<<5589999999999999999dddddddddddddd999dbbbbbbbbdddgggiijojjjjjjjjjjjjjiiiigiiggggggggddddbbb888888888555<<<<<<//{{{)))))>,,,%++....................                                                                                  ",
"~~~~~~~~~~]]]]]]]]]]]]]]/////<2299999999999999999dddddddddddddddddbdddddddddgggggiiiiiijjjjjjjjjjiiiiiiiigggggdddddd99999988888555<<<<<<</{{))>,,,,,,,%+.......       ...                                                                                       ",
"~~~~~~~~~~~~~~~~]]]]]]]]]/////<299999999999999999dddddddddddddddddddddddddddgggggiiiiiijjjjjjjjjjiiiiiggiiggdddb99999982225555555<<</////{)>>>>,%%%%$%+........       ..                                                                                        ",
"~~~~~~~~~~,,,,,~~~~]]]]]]]]]//((2999999999999999999999999dddddddddddddddddgggggggggggiijjjjjjjjjjigggggggggddd999999822222222<<<<///{{{{)>>%%%%%++++++.........                                                                                                 ",
",,,,~~~~~,,,,,,,,,~]]]]]]]]]](((2228888889822288888888999dddddddddddddddddgggggggggggggjjjjjjjjjigggdddddddb99988888222222<<<//]{)>>>>>>%%++...................                                                                                                 ",
",,,,,,,,,,,,,,,,,,,,,~]]]]~](((((2222222222222222222222999999ddddddddddddddddddddddddggfffffggggggddbb99999999822222222222<//]],>>%%%%%%+...................                                                                                                    ",
",,,,,=====$%,,,=====,,~]]~](((((((2222222222222((22((2222999999999bbbbbbbbddddddddbbdddgggggddddddb99899998882222222222222</],,$++..........................                                                                                                    ",
"$$$%$$$$$$$+$$$$$$$$==,,~~~(((((((22222222222(((((((((2222229999998888888888bbbbbbbbbbbddddddd9999992222222222222222222222(/],$+..................    ......                                                                                                    ",
"..+++++++++++..+++++$$$$=,~~](((((222222222((((((((((((((((22288225555555555555555555589999999999922((22222222222222222222/],$+. ................      .....                                                                                                    ",
"++++++++++++++++++++++%%%$>]]]]///<<<<<<<////]]]]]]]]]//////<2555<<<<<<<<<<<<<<55555<55555555555<</////////(((22255<<<<<<</{>%++.......+++++.............+++....................................................................................................",
"ffffffffffffffffffffffffffgiiiiiooooooooooiiiiiiiiiiiiioooooooooooooooooooooooooooooooooooooooooooiiioiiiooooooooooooooooooiifffffffffffffffffffffffffffffffffffffffffffffffffffffffffffffffffffffffffffffffffffffffffffffffffffffffffffffffffffffffffffffffffff"};
