/* XPM */
static char * SO_texture_xpm[] = {
"128 128 143 2",
"  	c #F32323",
". 	c #E56C23",
"+ 	c #CF9F23",
"@ 	c #B7C123",
"# 	c #9DD923",
"$ 	c #91E223",
"% 	c #86E923",
"& 	c #79F023",
"* 	c #77F123",
"= 	c #80ED23",
"- 	c #87E823",
"; 	c #93E123",
"> 	c #A4D323",
", 	c #B4C423",
"' 	c #C3B123",
") 	c #D79123",
"! 	c #E96023",
"~ 	c #EF4423",
"{ 	c #CDA323",
"] 	c #99DC23",
"^ 	c #73F323",
"/ 	c #83EB23",
"( 	c #A9CF23",
"_ 	c #C9A923",
": 	c #E37223",
"< 	c #F32723",
"[ 	c #D69223",
"} 	c #E27623",
"| 	c #F03B23",
"1 	c #B0C823",
"2 	c #F13923",
"3 	c #A1D623",
"4 	c #B2C623",
"5 	c #A3D423",
"6 	c #C8AA23",
"7 	c #DB8823",
"8 	c #EE4A23",
"9 	c #F22E23",
"0 	c #EE4823",
"a 	c #E86323",
"b 	c #E27723",
"c 	c #D19C23",
"d 	c #BBBB23",
"e 	c #A2D523",
"f 	c #D88E23",
"g 	c #75F223",
"h 	c #B3C423",
"i 	c #EA5A23",
"j 	c #F04023",
"k 	c #B5C223",
"l 	c #97DE23",
"m 	c #D49623",
"n 	c #D29923",
"o 	c #E37423",
"p 	c #E07A23",
"q 	c #CCA523",
"r 	c #C1B423",
"s 	c #93E023",
"t 	c #A7D123",
"u 	c #C3B223",
"v 	c #D59523",
"w 	c #89E723",
"x 	c #DB8723",
"y 	c #8DE423",
"z 	c #9ADB23",
"A 	c #BCBA23",
"B 	c #ABCD23",
"C 	c #EF4223",
"D 	c #CAA823",
"E 	c #ADCB23",
"F 	c #E76823",
"G 	c #74F323",
"H 	c #DE8023",
"I 	c #ACCC23",
"J 	c #98DD23",
"K 	c #C4B023",
"L 	c #F22B23",
"M 	c #7CEE23",
"N 	c #7FED23",
"O 	c #BFB723",
"P 	c #D59323",
"Q 	c #EA5D23",
"R 	c #88E823",
"S 	c #CBA623",
"T 	c #E56F23",
"U 	c #95DF23",
"V 	c #C7AC23",
"W 	c #EB5623",
"X 	c #A7D023",
"Y 	c #7BEF23",
"Z 	c #BFB623",
"` 	c #DF7D23",
" .	c #AACD23",
"..	c #DE8123",
"+.	c #ED4C23",
"@.	c #AACE23",
"#.	c #78F123",
"$.	c #D09D23",
"%.	c #E47023",
"&.	c #CEA123",
"*.	c #B6C123",
"=.	c #9BDB23",
"-.	c #76F223",
";.	c #F23123",
">.	c #E07C23",
",.	c #C6AD23",
"'.	c #9ED823",
").	c #EB5723",
"!.	c #E37323",
"~.	c #7CEF23",
"{.	c #ED4E23",
"].	c #EB5923",
"^.	c #8BE623",
"/.	c #D59423",
"(.	c #8AE723",
"_.	c #BDB923",
":.	c #BEB923",
"<.	c #B1C723",
"[.	c #AFC923",
"}.	c #DA8923",
"|.	c #8FE323",
"1.	c #E76523",
"2.	c #C5AF23",
"3.	c #EC5323",
"4.	c #ED4F23",
"5.	c #9CDA23",
"6.	c #A5D323",
"7.	c #D09E23",
"8.	c #F13423",
"9.	c #CDA223",
"0.	c #B6C223",
"a.	c #DF7E23",
"b.	c #E66B23",
"c.	c #EC5123",
"d.	c #81EC23",
"e.	c #B8BF23",
"f.	c #C9A823",
"g.	c #D98B23",
"h.	c #E27523",
"i.	c #7DEE23",
"j.	c #9ADC23",
"k.	c #C2B323",
"l.	c #D98C23",
"                                                                                                                                                                                                                                                                ",
"                                                                                                                                                                                                                                                                ",
"                                                                                                                                                                                                                                                                ",
"                                                                                                                                                                                                                                                                ",
"                                                                                                                                                                                                                                                                ",
"                                                                                                                                                                                                                                                                ",
"                                                                                                                                                                                                                                                                ",
"                                                                                                                                                                                                                                                                ",
"                                                                                                                                                                                                                                                                ",
"                                                                                                                                                                                                                                                                ",
"                                                                                                                                                                                                                                                                ",
"                                                                                                                                                                                                                                                                ",
"                                                                                                                                                                                                                                                                ",
"                                                                                                                                                                                                                                                                ",
"                                                                                                                                                                                                                                                                ",
"                                                                                                                                                                                                                                                                ",
"                                                                                                                                                                                                                                                                ",
"                                                                                                                                                                                                                                                                ",
"                                                                                                                                                                                                                                                                ",
"                                                                                                                                                                                                                                                                ",
"                                                                                                                                                                                                                                                                ",
"                                                                                                                                                                                                                                                                ",
"                                                                                                                                                                                                                                                                ",
"                                                                                                                                                                                                                                                                ",
"                                                                                                                                                                                                                                                                ",
"                                                                                                                                                                                                                                                                ",
"                                                                                                                                                                                                                                                                ",
"                                                                                                                                                                                                                                                                ",
"                                                                                                                                                                                                                                                                ",
"                                                                                                                                                                                                                                                                ",
"                                                                                                                                                                                                                                                                ",
"                                                                                                                                                                                                                                                                ",
"                                                                                                                                                                                                                                                                ",
"                                                                                                                                                                                                                                                                ",
"                                                                                                                                                                                                                                                                ",
"                                                                                                                                                                                                                                                                ",
"                                                                                                                                                                                                                                                                ",
"                                                                                                            . + @ # $ % & * = - ; > , ' ) !                                                                                                                     ",
"                                                                                                      ~ { ] ^ ^ ^ ^ ^ ^ ^ ^ ^ ^ ^ ^ ^ ^ ^ ^ / ( _ : <                                                                                                           ",
"                                                                                                    [ - ^ ^ ^ ^ ^ ^ ^ ^ ^ ^ ^ ^ ^ ^ ^ ^ ^ ^ ^ ^ ^ ^ }                                                                                                           ",
"                                                                                                | 1 ^ ^ ^ ^ ^ ^ ^ ^ ^ ^ ^ ^ ^ ^ ^ ^ ^ ^ ^ ^ ^ ^ ^ ^ }                                                                                                           ",
"                                                                                              2 3 ^ ^ ^ ^ ^ ^ ^ ^ ^ ^ ^ ^ ^ ^ ^ ^ ^ ^ ^ ^ ^ ^ ^ ^ ^ }                                                                                                           ",
"                                                                                              4 ^ ^ ^ ^ ^ ^ ^ * 5 6 7 ! 8 9 0 a b c d e & ^ ^ ^ ^ ^ }                                                                                                           ",
"                                                                                            f ^ ^ ^ ^ ^ ^ g h i                         j ) k / ^ ^ }                                                                                                           ",
"                                                                                            l ^ ^ ^ ^ ^ & m                                   2 n e o                                                                                                           ",
"                                                                                          p ^ ^ ^ ^ ^ ^ q                                                                                                                                                       ",
"                                                                                          r ^ ^ ^ ^ ^ s <                                                                                                                                                       ",
"                                                                                          t ^ ^ ^ ^ ^ u                                                                                                                                                         ",
"                                                                                          ; ^ ^ ^ ^ ^ v                                                                                                                                                         ",
"                                                                                          w ^ ^ ^ ^ ^ x                                                                                                                                                         ",
"                                                                                          y ^ ^ ^ ^ ^ m                                                                                                                                                         ",
"                                                                                          z ^ ^ ^ ^ ^ A                                                                                                                                                         ",
"                                                                                          B ^ ^ ^ ^ ^ % C                                                                                                                                                       ",
"                                                                                          D ^ ^ ^ ^ ^ ^ E 9                                                                                                                                                     ",
"                                                                                          F G ^ ^ ^ ^ ^ ^ z H                                                                                                                                                   ",
"                                                                                            I ^ ^ ^ ^ ^ ^ ^ ^ J K o L                                                                                                                                           ",
"                                                                                            . M ^ ^ ^ ^ ^ ^ ^ ^ ^ ^ N 5 O P Q                                                                                                                                   ",
"                                                                                              [ G ^ ^ ^ ^ ^ ^ ^ ^ ^ ^ ^ ^ ^ ^ R E S T                                                                                                                           ",
"                                                                                                P = ^ ^ ^ ^ ^ ^ ^ ^ ^ ^ ^ ^ ^ ^ ^ ^ ^ U V W                                                                                                                     ",
"                                                                                                  F X ^ ^ ^ ^ ^ ^ ^ ^ ^ ^ ^ ^ ^ ^ ^ ^ ^ ^ Y Z ~                                                                                                                 ",
"                                                                                                      `  .& ^ ^ ^ ^ ^ ^ ^ ^ ^ ^ ^ ^ ^ ^ ^ ^ ^ - ..                                                                                                              ",
"                                                                                                          +.{ @./ ^ ^ ^ ^ ^ ^ ^ ^ ^ ^ ^ ^ ^ ^ ^ #.$.                                                                                                            ",
"                                                                                                                  %.&.*.=.Y ^ ^ ^ ^ ^ ^ ^ ^ ^ ^ ^ -.7                                                                                                           ",
"                                                                                                                          ;.>.,.'.G ^ ^ ^ ^ ^ ^ ^ ^ / ).                                                                                                        ",
"                                                                                                                                  a @ #.^ ^ ^ ^ ^ ^ ^ d                                                                                                         ",
"                                                                                                                                      !.$ ^ ^ ^ ^ ^ ^ ~.{.                                                                                                      ",
"                                                                                                                                        ].^.^ ^ ^ ^ ^ ^ m                                                                                                       ",
"                                                                                                                                          /.^ ^ ^ ^ ^ ^ @                                                                                                       ",
"                                                                                                                                            (.^ ^ ^ ^ ^ 3                                                                                                       ",
"                                                                                                                                            1 ^ ^ ^ ^ ^ U                                                                                                       ",
"                                                                                                                                            _.^ ^ ^ ^ ^ w                                                                                                       ",
"                                                                                                                                            :.^ ^ ^ ^ ^ y                                                                                                       ",
"                                                                                                                                            <.^ ^ ^ ^ ^ z                                                                                                       ",
"                                                                                                                                            ^.^ ^ ^ ^ ^ [.                                                                                                      ",
"                                                                                                                                          }.^ ^ ^ ^ ^ ^ D                                                                                                       ",
"                                                                                          , S |                                         C |.^ ^ ^ ^ ^ G 1.                                                                                                      ",
"                                                                                          e ^ % 2.3.                                  4.5.^ ^ ^ ^ ^ ^ 5                                                                                                         ",
"                                                                                          e ^ ^ ^ * 6.7.0                         8.9.% ^ ^ ^ ^ ^ ^ g `                                                                                                         ",
"                                                                                          e ^ ^ ^ ^ ^ ^ * J 0.+ a.b.c.9 C i p &.h d.^ ^ ^ ^ ^ ^ ^ ^ A                                                                                                           ",
"                                                                                          e ^ ^ ^ ^ ^ ^ ^ ^ ^ ^ ^ ^ ^ ^ ^ ^ ^ ^ ^ ^ ^ ^ ^ ^ ^ ^ ^  .9                                                                                                           ",
"                                                                                          e ^ ^ ^ ^ ^ ^ ^ ^ ^ ^ ^ ^ ^ ^ ^ ^ ^ ^ ^ ^ ^ ^ ^ ^ ^ ^ e.9                                                                                                             ",
"                                                                                          ).f.# G ^ ^ ^ ^ ^ ^ ^ ^ ^ ^ ^ ^ ^ ^ ^ ^ ^ ^ ^ ^ ^ s g.                                                                                                                ",
"                                                                                                ! S B / ^ ^ ^ ^ ^ ^ ^ ^ ^ ^ ^ ^ ^ ^ ^ & X [ L                                                                                                                   ",
"                                                                                                      < h.+ _.( U (.= g * i.^.j.E k.l.C                                                                                                                         ",
"                                                                                                                                                                                                                                                                ",
"                                                                                                                                                                                                                                                                ",
"                                                              ^ ^ ^ ^ ^ ^ ^ ^ ^ ^ ^ ^ ^ ^ ^ ^ ^ ^ ^ ^ ^ ^ ^ ^ ^ ^ ^ ^ ^ ^ ^ ^ ^ ^ ^ ^ ^ ^ ^ ^ ^ ^ ^ ^ ^ ^ ^ ^ ^ ^ ^ ^ ^ ^ ^ ^ ^ ^ ^ ^ ^ ^ ^ ^ ^ ^ ^                                                             ",
"                                                                                                                                                                                                                                                                ",
"                                                                                                                                                                                                                                                                ",
"                                                                                                                                                                                                                                                                ",
"                                                                                                                                                                                                                                                                ",
"                                                                                                                                                                                                                                                                ",
"                                                                                                                                                                                                                                                                ",
"                                                                                                                                                                                                                                                                ",
"                                                                                                                                                                                                                                                                ",
"                                                                                                                                                                                                                                                                ",
"                                                                                                                                                                                                                                                                ",
"                                                                                                                                                                                                                                                                ",
"                                                                                                                                                                                                                                                                ",
"                                                                                                                                                                                                                                                                ",
"                                                                                                                                                                                                                                                                ",
"                                                                                                                                                                                                                                                                ",
"                                                                                                                                                                                                                                                                ",
"                                                                                                                                                                                                                                                                ",
"                                                                                                                                                                                                                                                                ",
"                                                                                                                                                                                                                                                                ",
"                                                                                                                                                                                                                                                                ",
"                                                                                                                                                                                                                                                                ",
"                                                                                                                                                                                                                                                                ",
"                                                                                                                                                                                                                                                                ",
"                                                                                                                                                                                                                                                                ",
"                                                                                                                                                                                                                                                                ",
"                                                                                                                                                                                                                                                                ",
"                                                                                                                                                                                                                                                                ",
"                                                                                                                                                                                                                                                                ",
"                                                                                                                                                                                                                                                                ",
"                                                                                                                                                                                                                                                                ",
"                                                                                                                                                                                                                                                                ",
"                                                                                                                                                                                                                                                                ",
"                                                                                                                                                                                                                                                                ",
"                                                                                                                                                                                                                                                                ",
"                                                                                                                                                                                                                                                                ",
"                                                                                                                                                                                                                                                                ",
"                                                                                                                                                                                                                                                                ",
"                                                                                                                                                                                                                                                                ",
"                                                                                                                                                                                                                                                                ",
"                                                                                                                                                                                                                                                                ",
"                                                                                                                                                                                                                                                                "};
