/* XPM */
static char * WE_texture_xpm[] = {
"128 128 164 2",
"  	c #F3DD23",
". 	c #7571DE",
"+ 	c #2339F3",
"@ 	c #C9B89C",
"# 	c #595BE9",
"$ 	c #DBC87D",
"% 	c #ECD74E",
"& 	c #273BF3",
"* 	c #E2CE6C",
"= 	c #AA9DBE",
"- 	c #A297C4",
"; 	c #E2CE6E",
"> 	c #B9ABAF",
", 	c #CEBD93",
"' 	c #5A5CE8",
") 	c #CFBD92",
"! 	c #6968E4",
"~ 	c #C2B2A5",
"{ 	c #8D85D3",
"] 	c #9A90CA",
"^ 	c #2B3DF2",
"/ 	c #E8D35D",
"( 	c #998FCB",
"_ 	c #444CEE",
": 	c #F1DC31",
"< 	c #7672DE",
"[ 	c #C3B3A3",
"} 	c #E4CF69",
"| 	c #AB9EBD",
"1 	c #5D5EE8",
"2 	c #CFBE92",
"3 	c #C2B2A4",
"4 	c #8B83D3",
"5 	c #AA9EBD",
"6 	c #9C92C8",
"7 	c #ECD74C",
"8 	c #998FCA",
"9 	c #CEBD94",
"0 	c #5458EA",
"a 	c #7773DE",
"b 	c #C4B4A1",
"c 	c #7874DD",
"d 	c #EBD651",
"e 	c #968CCD",
"f 	c #E4D066",
"g 	c #AC9FBC",
"h 	c #7370DF",
"i 	c #BEAFA9",
"j 	c #6162E6",
"k 	c #D0BE91",
"l 	c #A89BBF",
"m 	c #DECB75",
"n 	c #9E93C7",
"o 	c #EDD74A",
"p 	c #2E3EF2",
"q 	c #CCBB96",
"r 	c #F2DC2B",
"s 	c #4E53EC",
"t 	c #464EEE",
"u 	c #C6B69F",
"v 	c #7975DD",
"w 	c #EAD556",
"x 	c #9188D0",
"y 	c #E5D164",
"z 	c #AC9FBB",
"A 	c #E3CF6B",
"B 	c #6F6CE1",
"C 	c #BBACAD",
"D 	c #6464E5",
"E 	c #D1BF8F",
"F 	c #A599C2",
"G 	c #DCC97B",
"H 	c #A095C6",
"I 	c #EDD848",
"J 	c #CAB999",
"K 	c #F2DC2E",
"L 	c #C7B79E",
"M 	c #7B76DC",
"N 	c #5C5DE8",
"O 	c #E8D45A",
"P 	c #8C84D3",
"Q 	c #E7D260",
"R 	c #ADA0BA",
"S 	c #6A69E3",
"T 	c #B7A9B1",
"U 	c #D0BF90",
"V 	c #6867E4",
"W 	c #D2C08E",
"X 	c #D8C682",
"Y 	c #A196C4",
"Z 	c #EED846",
"` 	c #3140F1",
" .	c #E8D35C",
"..	c #9B91C9",
"+.	c #C8B89C",
"@.	c #F1DB36",
"#.	c #3E48EF",
"$.	c #7A76DC",
"%.	c #7C77DB",
"&.	c #C9B99B",
"*.	c #867FD6",
"=.	c #DBC87C",
"-.	c #AEA1BA",
";.	c #A397C3",
">.	c #E3CF6A",
",.	c #6666E4",
"'.	c #B4A6B4",
").	c #BAABAE",
"!.	c #D3C18D",
"~.	c #D5C388",
"{.	c #8E85D2",
"].	c #A398C3",
"^.	c #EED944",
"/.	c #C7B69F",
"(.	c #EFDA3E",
"_.	c #3643F1",
":.	c #CAB99A",
"<.	c #7D78DB",
"[.	c #807AD9",
"}.	c #AFA2B9",
"|.	c #B0A3B8",
"1.	c #6E6BE2",
"2.	c #D3C18C",
"3.	c #C4B4A2",
"4.	c #9D93C8",
"5.	c #EED942",
"6.	c #3442F1",
"7.	c #9C91C9",
"8.	c #CBBA98",
"9.	c #7F7ADA",
"0.	c #5F60E7",
"a.	c #706DE1",
"b.	c #D4C28A",
"c.	c #A79BC0",
"d.	c #EFD940",
"e.	c #6061E7",
"f.	c #7471DF",
"g.	c #EAD554",
"h.	c #B1A4B7",
"i.	c #E4D068",
"j.	c #575AE9",
"k.	c #D4C289",
"l.	c #988ECB",
"m.	c #A89CBF",
"n.	c #C1B1A6",
"o.	c #7E79DA",
"p.	c #827CD8",
"q.	c #E0CD71",
"r.	c #D6C487",
"s.	c #EBD64F",
"t.	c #B2A4B6",
"u.	c #8880D5",
"v.	c #5357EB",
"w.	c #F3DD27",
"x.	c #958CCD",
"y.	c #3945F0",
"z.	c #837DD8",
"A.	c #B2A5B6",
"B.	c #9F94C6",
"C.	c #9289CF",
"D.	c #F0DA3B",
"E.	c #BCADAC",
"F.	c #857ED7",
"G.	c #DDC979",
"                                                                                                                                                                                                                                                                ",
"                                                                                                                                                                                                                                                                ",
"                                                                                                                                                                                                                                                                ",
"                                                                                                                                                                                                                                                                ",
"                                                                                                                                                                                                                                                                ",
"                                                                                                                                                                                                                                                                ",
"                                                                                                                                                                                                                                                                ",
"                                                                                                                                                                                                                                                                ",
"                                                                                                                                                                                                                                                                ",
"                                                                                                                                                                                                                                                                ",
"                                                                                                                                                                                                                                                                ",
"                                                                                                                                                                                                                                                                ",
"                                                                                                                                                                                                                                                                ",
"                                                                                                                                                                                                                                                                ",
"                                                                                                                                                                                                                                                                ",
"                                                                                                                                                                                                                                                                ",
"                                                                                                                                                                                                                                                                ",
"                                                                                                                                                                                                                                                                ",
"                                                                                                                                                                                                                                                                ",
"                                                                                                                                                                                                                                                                ",
"                                                                                                                                                                                                                                                                ",
"                                                                                                                                                                                                                                                                ",
"                                                                                                                                                                                                                                                                ",
"                                                                                                                                                                                                                                                                ",
"                                                                                                                                                                                                                                                                ",
"                                                                                                                                                                                                                                                                ",
"                                                                                                                                                                                                                                                                ",
"                                                                                                                                                                                                                                                                ",
"                                                                                                                                                                                                                                                                ",
"                                                                                                                                                                                                                                                                ",
"                                                                                                                                                                                                                                                                ",
"                                                                                                                                                                                                                                                                ",
"                                                                                                                                                                                                                                                                ",
"                                                                                                                                                                                                                                                                ",
"                                                                                                                                                                                                                                                                ",
"                                                                                                                                                                                                                                                                ",
"                                                                                                                                                                                                                                                                ",
"                                                                                                                                                                                                                                                                ",
"                                                                        . + + + + + @                                     # + + + + + + $                                   % & + + + + + *                                                                     ",
"                                                                        = + + + + + -                                   ; + + + + + + + >                                   , + + + + + '                                                                       ",
"                                                                        ) + + + + + !                                   ~ + + + + + + + {                                   = + + + + + ]                                                                       ",
"                                                                        % ^ + + + + + /                                 ( + + + + + + + _ :                                 < + + + + + [                                                                       ",
"                                                                          < + + + + + @                                 # + + + + + + + + $                               % ^ + + + + + }                                                                       ",
"                                                                          | + + + + + -                               ; + + + + + + + + + >                               ) + + + + + 1                                                                         ",
"                                                                          2 + + + + + !                               3 + + + + 4 + + + + {                               5 + + + + + 6                                                                         ",
"                                                                          7 ^ + + + + + /                             8 + + + + 9 0 + + + _ :                             a + + + + + b                                                                         ",
"                                                                            c + + + + + @                             ' + + + & d e + + + + $                           7 ^ + + + + + f                                                                         ",
"                                                                            g + + + + + -                           * + + + + h   i + + + + >                           2 + + + + + j                                                                           ",
"                                                                            k + + + + + !                           3 + + + + l   m + + + + {                           | + + + + + n                                                                           ",
"                                                                            o p + + + + + /                         8 + + + + q   r s + + + t :                         c + + + + + u                                                                           ",
"                                                                              v + + + + + @                         ' + + + + w     x + + + + $                       o ^ + + + + + y                                                                           ",
"                                                                              z + + + + + -                       A + + + + B       C + + + + >                       k + + + + + D                                                                             ",
"                                                                              E + + + + + !                       [ + + + + F       G + + + + {                       g + + + + + H                                                                             ",
"                                                                              I p + + + + + /                     ] + + + + J       K _ + + + t :                     v + + + + + L                                                                             ",
"                                                                                M + + + + + @                     N + + + + O         P + + + + $                   I p + + + + + Q                                                                             ",
"                                                                                R + + + + + -                   A + + + + S           T + + + + >                   U + + + + + V                                                                               ",
"                                                                                W + + + + + !                   [ + + + + -           X + + + + {                   z + + + + + Y                                                                               ",
"                                                                                Z ` + + + + +  .                ..+ + + + +.          @.#.+ + + t K                 $.+ + + + + @                                                                               ",
"                                                                                  %.+ + + + + &.                1 + + + + Q             *.+ + + + =.              I p + + + + + /                                                                               ",
"                                                                                  -.+ + + + + ;.              >.+ + + + ,.              '.+ + + + ).              E + + + + + S                                                                                 ",
"                                                                                  !.+ + + + + S               [ + + + + H               ~.+ + + + {.              R + + + + + ].                                                                                ",
"                                                                                  ^.` + + + + +  .            ..+ + + + /.              (._.+ + + t K             M + + + + + :.                                                                                ",
"                                                                                    <.+ + + + + &.            1 + + + + y                 [.+ + + + =.          Z p + + + + + O                                                                                 ",
"                                                                                    }.+ + + + + ;.          } + + + + j                   |.+ + + + ).          W + + + + + 1.                                                                                  ",
"                                                                                    2.+ + + + + S           3.+ + + + 4.                  !.+ + + + {.          -.+ + + + + F                                                                                   ",
"                                                                                    5.6.+ + + + +  .        7.+ + + + b                   Z p + + + t K         %.+ + + + + 8.                                                                                  ",
"                                                                                      9.+ + + + + &.        0.+ + + + }                     $.+ + + + =.      ^.` + + + + + w                                                                                   ",
"                                                                                      |.+ + + + + ;.      } + + + + N                       z + + + + ).      W + + + + + a.                                                                                    ",
"                                                                                      b.+ + + + + S       3.+ + + + ]                       2 + + + + {.      }.+ + + + + c.                                                                                    ",
"                                                                                      d.6.+ + + + +  .    6 + + + + 3                       % & + + + t K     <.+ + + + + q                                                                                     ",
"                                                                                        [.+ + + + + &.    e.+ + + + ;                         f.+ + + + =.  ^.` + + + + & g.                                                                                    ",
"                                                                                        h.+ + + + + ;.  i.+ + + + j.                          l + + + + ).  !.+ + + + + h                                                                                       ",
"                                                                                        k.+ + + + + S   b + + + + l.                          q + + + + {.  }.+ + + + + m.                                                                                      ",
"                                                                                        (._.+ + + + +  .6 + + + + n.                          w + + + + t K o.+ + + + + 9                                                                                       ",
"                                                                                          p.+ + + + + &.e.+ + + + q.                            1.+ + + + r.6.+ + + + & s.                                                                                      ",
"                                                                                          t.+ + + + + u.+ + + + v.w.                            ].+ + + + u.+ + + + + .                                                                                         ",
"                                                                                          ~.+ + + + + + + + + + x.                              &.+ + + + + + + + + + 5                                                                                         ",
"                                                                                          (.y.+ + + + + + + + + i                               / + + + + + + + + + + )                                                                                         ",
"                                                                                            z.+ + + + + + + + + m                                 ,.+ + + + + + + + ^ %                                                                                         ",
"                                                                                            A.+ + + + + + + + s r                                 B.+ + + + + + + + c                                                                                           ",
"                                                                                            r.+ + + + + + + + C.                                  u + + + + + + + + g                                                                                           ",
"                                                                                            D.y.+ + + + + + + E.                                  f + + + + + + + + U                                                                                           ",
"                                                                                              F.+ + + + + + + G.                                    0.+ + + + + + p o                                                                                           ",
"                                                                                                                                                                                                                                                                ",
"                                                                                                                                                                                                                                                                ",
"                                                                                                                                                                                                                                                                ",
"                                                              + + + + + + + + + + + + + + + + + + + + + + + + + + + + + + + + + + + + + + + + + + + + + + + + + + + + + + + + + + + + + + + + + + +                                                             ",
"                                                                                                                                                                                                                                                                ",
"                                                                                                                                                                                                                                                                ",
"                                                                                                                                                                                                                                                                ",
"                                                                                                                                                                                                                                                                ",
"                                                                                                                                                                                                                                                                ",
"                                                                                                                                                                                                                                                                ",
"                                                                                                                                                                                                                                                                ",
"                                                                                                                                                                                                                                                                ",
"                                                                                                                                                                                                                                                                ",
"                                                                                                                                                                                                                                                                ",
"                                                                                                                                                                                                                                                                ",
"                                                                                                                                                                                                                                                                ",
"                                                                                                                                                                                                                                                                ",
"                                                                                                                                                                                                                                                                ",
"                                                                                                                                                                                                                                                                ",
"                                                                                                                                                                                                                                                                ",
"                                                                                                                                                                                                                                                                ",
"                                                                                                                                                                                                                                                                ",
"                                                                                                                                                                                                                                                                ",
"                                                                                                                                                                                                                                                                ",
"                                                                                                                                                                                                                                                                ",
"                                                                                                                                                                                                                                                                ",
"                                                                                                                                                                                                                                                                ",
"                                                                                                                                                                                                                                                                ",
"                                                                                                                                                                                                                                                                ",
"                                                                                                                                                                                                                                                                ",
"                                                                                                                                                                                                                                                                ",
"                                                                                                                                                                                                                                                                ",
"                                                                                                                                                                                                                                                                ",
"                                                                                                                                                                                                                                                                ",
"                                                                                                                                                                                                                                                                ",
"                                                                                                                                                                                                                                                                ",
"                                                                                                                                                                                                                                                                ",
"                                                                                                                                                                                                                                                                ",
"                                                                                                                                                                                                                                                                ",
"                                                                                                                                                                                                                                                                ",
"                                                                                                                                                                                                                                                                ",
"                                                                                                                                                                                                                                                                ",
"                                                                                                                                                                                                                                                                ",
"                                                                                                                                                                                                                                                                ",
"                                                                                                                                                                                                                                                                "};
