/* XPM */
static char * wood_xpm[] = {
"64 64 40 1",
" 	c #000000",
".	c #00003E",
"+	c #00015D",
"@	c #01007E",
"#	c #0100A1",
"$	c #0400BA",
"%	c #3E0000",
"&	c #520000",
"*	c #430043",
"=	c #151515",
"-	c #520153",
";	c #6F0101",
">	c #1A1A1A",
",	c #231A03",
"'	c #760079",
")	c #232323",
"!	c #AC0000",
"~	c #9F009F",
"{	c #9402BD",
"]	c #931301",
"^	c #D30000",
"/	c #313131",
"(	c #433311",
"_	c #3E3E3E",
":	c #5B3E19",
"<	c #EB1701",
"[	c #464646",
"}	c #4A4B4A",
"|	c #4E4E4E",
"1	c #535353",
"2	c #82532A",
"3	c #666666",
"4	c #716C00",
"5	c #868686",
"6	c #9E9B00",
"7	c #A4A4A4",
"8	c #B5B5B5",
"9	c #B8B8B8",
"0	c #D4CA00",
"a	c #D3D4D4",
"((((((((((((((((((((((((((((((((((((((((((((((((((((((((((((((((",
"::::::::::::::::::::::::::::::::::::::::::::::::::::::::::::::::",
"2222222222222222222222222222222222222222222222222222222222222222",
":::::::(:,(::::::::::::::(:,(::::(:,(::::::(:,(:::::::::::(:,(::",
"((:2222:2,:2:((((22(:(:((:2,:22(2:2,:2:(((::2,:2(2((2(2(22:2,:2:",
"((:222::2,:2:(((:22(:(:((:2,:22(2:2,:22:(:2:2,:2(2((2(2(22:2,:2:",
"((:222::2,:22:((:22(:(:((:2,:2:(2:2,:222:22:2,:2(2((2(2(22:2,:2:",
":(::22::2,:22:((:2:(:(:((:2,:2:(2:2,:222222:2,:2(2((2(2(22:2,:2:",
":((:2:(:2,:22:(::2:(:(:((:2,:2:(2:2,:222222:2,:2(2((2(2(:2:2,:2:",
":(:(::(:2,:22:(:22:(:(:((:2,:2:(2:2,:222222:2,:2(2((2(2(:2:2,:2:",
"2:((:((:2,:222::22:(:(:((:2,:2:(2:2,:222222:2,:2(2((2(2(:2:2,:2:",
"2:((((::2,:222:222:(:(:((:2,:2((2:2,:222222:2,:2(2((2(2(:2:2,:2(",
":2(((:2:2,:222:222:(:(:((:2,:2(:2:2,:2:2222:2,:2(2((2(2:(2:2,:2(",
":2:((:2:2,:222222:((:(:((:2,:2(:2:2,:2:222::2,:2(2((2(2:(2:2,:2(",
":22(:22:2,:222222:((:(:((:2,:2(22:2,:2:222::2,:2(2((2(2:(2:2,:2(",
":222:2::2,:2:2222:((:(:((:2,:2:22:2,:2(:2:::2,:2(2((2(2:(2:2,:2:",
"(:22:2::2,:2:2222:((:(:((:2,:2:2::2,:2(:::(:2,:2(2((2(2:(2:2,:2:",
"(:2222::2,:2:2222:((:(:((:2,:222::2,:2((:((:2,:2(2((2(2:(::2,:2:",
"(::222(:2,:2:2222:((:(:((:2,:222::2,:2(((((:2,:2(2((2(2:(::2,:2:",
"(::22:(:2,:2::222:(::(:((:2,:22:::2,:2(((((:2,:2(2((2(2:(::2,:2:",
"((:22:(:2,:2::22:((::(:((:2,:22:(:2,:2(((((:2,:2(2((2(2:(::2,:2:",
"((:22:(:2,:2(:22:((::(:((:2,:22:(:2,:2:(((::2,:2(2((2(22(::2,:2:",
":(:::((:2,:2(:22:((::(:((:2,:2:((:2,:2::(:::2,:2(2((2(:2((:2,:2:",
":((:((::2,:2(::::((::(:((:2,:2:((:2,:22:::2:2,:2(2((2(:2:(:2,:2:",
":(((((::2,:2(::::((::(:((:2,:2(((:2,:222:22:2,:2(2((2(:2:(:2,:2:",
":(((((::2,:2((::(((::(:((:2,:2(((:2,:222222:2,:2(2((2(:2:(:2,:2:",
":(((((::2,:2(((((((::(:((:2,:2((::2,:222222:2,:2(2((2(:2:(:2,:2:",
"::(((:::2,:2((((((:2((:((:2,:2((::2,:222222:2,:2(2((2(:2:::2,:2(",
"::(((:::2,:2((((((:2((:((:2,:2((::2,:2:2222:2,:2(2((2(:2:::2,:2(",
"::(((:::2,:2((((((:2((:((:2,:2((::2,:2:2222:2,:2(2((2((22:(2,:2(",
":::((:(:2,:2((((((:2((:((:2,:2(:::2,:2:222::2,:2(2((2((22::2,:2(",
"(::(::(:2,:2:(((((:2((:((:2,:2(:2:2,:2::22::2,:2(2((2((:2::2,:2(",
"(:::::(:2,:2:((((:2:(::((:2,:2::2:2,:2(:22::2,:2(2((2((:2::2,:2(",
"(:::::(:2,:2::(((:2:(::((:2,:2:22:2,:2(:2:(:2,:2(2((2:(:22:2,:2(",
"((:::((:2,:22:((::2:(::((:2,:2:22:2,:2((::(:2,:2(2((2:(:22:2,:2:",
"((:::((:2,:22::(:22:(::((:2,:2222:2,:2((:((:2,:2(2((2:(:22:2,:2:",
"(((:(((:2,:222:(:22:(::((:2,:222::2,:2(((((:2,:2(2((2:(:22:2,:2:",
"(((((((:2,:2222:222((::((:2,:222::2,:2(((((:2,:2(2((2:(:22:2,:2:",
"((((((::2,:2222222:((::((:2,:222::2,:2(((((:2,:2(2((2:((:2:2,:2:",
":(((((::2,:2:22222:((2:((:2,:22:::2,:2:((((:2,:2(2((2:((:2:2,:2:",
":(((((::2,:2:22222:((2:((:2,:22:(:2,:2:((((:2,:2(2((::((:2:2,:2:",
"::(((:::2,:2:22222:((2:((:2,:22:(:2,:2::((::2,:2(2((:2((:2:2,:2:",
"::(((:::2,:2:22222(((2:((:2,:2::(:2,:22:(:::2,:2(2((:2:(:::2,:2(",
":::(::::2,:2(:222:((:2(((:2,:2:((:2,:22:::::2,:2(2((:2:(:::2,:2(",
"::::::::2,:2(:222:((:2(((:2,:2:((:2,:222::2:2,:2(2((:2:(:::2,:2(",
"::::::::2,:2(::2::((:2(((:2,:2(((:2,:222:22:2,:2(2((:2:((::2,:2(",
"::::::::2,:2((:::(((:2(((:2,:2((::2,:222222:2,:2(2((:2::(::2,:2(",
"::::::(:2,:2(((::(((2:(((:2,:2((::2,:222222:2,:2(2((:2::(::2,:2(",
"(:222:(:2,:2:((((((:2:(((:2,:2((::2,:22222::2,:2(2(((2::(::2,:2(",
"(:222:(:2,:2:((((((:2:(((:2,:2(:::2,:2:222::2,:2(2(((:2:((:2,:2(",
"(::22:(:2,:2:((((((:2:(((:2,:2(:2:2,:2:222::2,:2(2(((:2::(:2,:2(",
"(::22:(:2,:2::(((((:2((((:2,:2::2:2,:2:222::2,:2(2(((:2::(:2,:2:",
"((:2::(:2,:22:((((:2:((((:2,:2:22:2,:2:22:::2,:2(2(((:2::(:2,:2:",
"((::::(:2,:22:((((:2:((:(:2,:2222:2,:2::2:::2,:2(2:((::2:::2,:2:",
"((::::(:2,:2:::(((:2:((:(:2,:2222:2,:2::2:(:2,:2(2:((::2:::2,:2:",
"(((::((:2,:2:2:((::2(((:(:2,:2222:2,:2(:::(:2,:2(2:(((:2:::2,:2:",
"(((::((:2,:2:2::(:22(((:(:2,:2222:2,:2(::((:2,:2(2:(((::2::2,:2:",
":(((((::2,:2(:2::22:(((:(:2,:2222:2,:2((:((:2,:2(::(((::2::2,:22",
":(((((::2,:2(:22222:(((2(:2,:222::2,:2(((((:2,:2(::((((:2::2,:22",
":(((((::2,:2((2222:(((:2(:2,:222::2,:2(((((:2,:2(:::(((::::2,:22",
"::(((:::2,:2((::2::(((:2(:2,:22:::2,:2(((((:2,:2(:2:((((:::2,:22",
"::(((:::2,:2(((:::((((:2(:2,:22:::2,:2(((((:2,:2((2:(((((::2,:22",
"::(((:::2,:2((((:((((:22::2,:2::(:2,:2(((((:2,:2:(2:((((((:2,:22",
"::::::::2,:2:(((((((::::::2,:2:((:2,:2:(((::2,:2:(::((((((:2,:2:"};
